!!!!SEGMENT: pl-kk--kk-i-342_gorczycki-grzegorz-gerwazy--jesu-redemptor-omnium.krn
!!!cenid: 17xx:2153
!!!COM: Gorczycki, Grzegorz Gerwazy
!!!COM-rismid: pe30009207
!!!CDT: ~1666-1734/04/30
!!!CNT: Polish
!!!OTL: Jesu redemptor omnium
!!!PDT:
!!!AGN: Sacred
!!!SMS-siglum: PL-Kk
!!!SMS-shelfmark: Kk.I.342
!!!SMS-shelfwork: W
!!!SMS-variant:
!!!SMS-altvar:
!!!NIFC-rismid: 1001145207
!!!URL-scan: http://repozytorium.nifc.pl/skany/pl-kk-nut--i-342
!!!ONB-nifc:
**kern	**text	**fba	**kern	**text	**kern	**text	**kern	**text
*part4	*part4	*part4	*part3	*part3	*part2	*part2	*part1	*part1
*staff4	*staff4	*staff4	*staff3	*staff3	*staff2	*staff2	*staff1	*staff1
*group1	*	*	*group1	*	*group1	*	*group1	*
*Iempty	*	*	*Itenor	*	*Ialto	*	*Ivox	*
*I"Baſso.	*	*	*I"Tenore	*	*I"Alto.	*	*I"Canto.	*
*I'B	*	*	*I'T	*	*I'A	*	*I'S	*
*clefF4	*	*	*clefC4	*	*clefC3	*	*clefC1	*
*k[]	*	*	*k[]	*	*k[]	*	*k[]	*
*C:	*	*	*C:	*	*C:	*	*C:	*
*M3/2	*	*	*M3/2	*	*M3/2	*	*M3/2	*
=1-	=1-	=1-	=1-	=1-	=1-	=1-	=1-	=1-
!	!	!	!	!	!	!	!LO:TX:a:t=De Nativitate D(omi)ni.	!
2D/	Je-	.	2d\	Je-	2f\	Je-	2a\	Je-
2C#X/	-ſu	.	2A/	-ſu	2e\	-ſu	2a\	-su
!LO:TX:t=P:problem:kreska pseudotaktowa	!	!	!LO:TX:t=P:problem:kreska pseudotaktowa	!	!LO:TX:t=P:problem:kreska pseudotaktowa	!	!LO:TX:t=P:problem:kreska pseudotaktowa	!
2D/	Re-	.	2d\	Re-	2f\	Re-	2a\	Re-
=2-	=2-	=2-	=2-	=2-	=2-	=2-	=2-	=2-
1GG	-dem-	.	1d	-dem-	1f	-dem-	1b-X	-dem-
!LO:TX:t=P:problem:kreska pseudotaktowa	!	!	!LO:TX:t=P:problem:kreska pseudotaktowa	!	!LO:TX:t=P:problem:kreska pseudotaktowa	!	!LO:TX:t=P:problem:kreska pseudotaktowa	!
2Cny/	-ptor	.	2c\	-ptor	2e\	-ptor	2g/	-ptor
=3-	=3-	=3-	=3-	=3-	=3-	=3-	=3-	=3-
2.F\	om-	.	2.c\	om-	2.f\	om-	2.a\	om-
4F\	-ni-	.	4c\	-ni-	4f\	-ni-	4a\	-ni-
2F\	-u(m)	.	2c\	-u(m)	2f\	-u(m)	2a\	-u(m)
=4-	=4-	=4-	=4-	=4-	=4-	=4-	=4-	=4-
*M2/1	*	*	*M2/1	*	*M2/1	*	*M2/1	*
*met(C|)	*	*	*met(C|)	*	*met(C|)	*	*met(C|)	*
!	!	!	!	!	!	!	!LO:TX:t=P:problem:kreska pseudotaktowa	!
00r	.	.	00r	.	0r	.	1g	quem
*	*	*	*	*	*	*	*lig	*
.	.	.	.	.	.	.	1a	lu-
=5-	=5-	=5-	=5-	=5-	=5-	=5-	=5-	=5-
!	!	!	!	!	!LO:TX:t=P:problem:kreska pseudotaktowa	!	!	!
.	.	.	.	.	1r	.	1cc	.
*	*	*	*	*	*	*	*Xlig	*
!	!	!	!	!	!	!	!LO:TX:t=P:problem:kreska pseudotaktowa	!
.	.	.	.	.	1c	Qve(m)	1cc	-cis
=6-	=6-	=6-	=6-	=6-	=6-	=6-	=6-	=6-
*	*	*	*	*	*	*	*lig	*
!LO:TX:t=P:problem:kreska pseudotaktowa	!	!	!LO:TX:t=P:problem:kreska pseudotaktowa	!	!	!	!	!
00r	.	.	1r	.	2.e\	lu-	1cc	an-
!	!	!	!	!	!LO:TX:t=P:problem:kreska pseudotaktowa	!	!	!
.	.	.	.	.	4f\	.	.	.
.	.	.	1G	Qvem	2g\	.	1bny	.
!	!	!	!	!	!LO:TX:t=P:problem:kreska pseudotaktowa	!	!	!
.	.	.	.	.	2g\	-cis	.	.
*	*	*	*	*	*	*	*Xlig	*
=7-	=7-	=7-	=7-	=7-	=7-	=7-	=7-	=7-
*	*	*	*lig	*	*	*	*	*
.	.	.	1A	lu-	1f	an-	2a\	-te
.	.	.	.	.	.	.	2.cc\	o-
.	.	.	1c	.	2e\	-te	.	.
.	.	.	.	.	.	.	4dd\	.
!	!	!	!	!	!	!	!LO:LB:g=original	!
.	.	.	.	.	2.c/	o-	2.ee\	-ri-
*	*	*	*Xlig	*	*	*	*	*
=8-	=8-	=8-	=8-	=8-	=8-	=8-	=8-	=8-
!	!	!	!LO:TX:t=P:problem:kreska pseudotaktowa	!	!	!	!	!
1C	Qve(m)	.	1c	-cis	.	.	.	.
.	.	.	.	.	4d\	.	4dd\	-gi-
!	!	!	!	!	!	!	!LO:TX:t=P:problem:kreska pseudotaktowa	!
.	.	.	.	.	4e\	.	2cc\	-ne(m)
!	!	!	!	!	!LO:TX:t=P:problem:kreska pseudotaktowa	!	!	!
.	.	.	.	.	4f\	.	.	.
*	*	*	*lig	*	*	*	*	*
2.E\	lu-	.	1c	an-	4g\	.	1r	.
.	.	.	.	.	4f\	.	.	.
!	!	!	!	!	!LO:TX:t=P:problem:kreska pseudotaktowa	!	!	!
.	.	.	.	.	2e\	.	.	.
!LO:TX:t=P:problem:kreska pseudotaktowa	!	!	!	!	!	!	!	!
4F\	.	.	.	.	.	.	.	.
=9-	=9-	=9-	=9-	=9-	=9-	=9-	=9-	=9-
2G\	.	.	1B	.	2d\	.	1g	quem
!LO:TX:t=P:problem:kreska pseudotaktowa	!	!	!	!	!	!	!	!
2G\	-cis	.	.	.	2g\	.	.	.
*	*	*	*Xlig	*	*	*	*	*
!LO:TX:t=P:problem:kreska pseudotaktowa	!	!	!LO:TX:t=P:problem:kreska pseudotaktowa	!	!	!	!LO:TX:t=P:problem:kreska pseudotaktowa	!
1F	an-	.	1A	-te	2c/	.	1a	lu-
!	!	!	!	!	!LO:SIC:v:t=custos B	!	!	!
!	!	!	!	!	!LO:TX:t=P:problem:kreska pseudotaktowa	!	!	!
.	.	.	.	.	2f\	.	.	.
!	!	!	!	!	!LO:LB:g=original	!	!	!
=10-	=10-	=10-	=10-	=10-	=10-	=10-	=10-	=10-
2E\	-te	.	1G	o-	2B/	.	2b\	-cis
1C	o-	.	.	.	1e	.	1cc	an-
*	*	*	*lig	*	*	*	*	*
.	.	.	1A	-ri-	.	.	.	.
!LO:TX:t=P:problem:kreska pseudotaktowa	!	!	!	!	!LO:TX:t=P:problem:kreska pseudotaktowa	!	!	!
2D/	.	.	.	.	2f\	.	1a\	-te
=11-	=11-	=11-	=11-	=11-	=11-	=11-	=11-	=11-
*	*	*	*col	*	*	*	*	*
!LO:TX:a:t=P:problem:niezidentyfikowany symbol (signum congruentiae?)	!	!	!	!	!	!	!	!
4AA/	.	.	2.c\	.	2.e\	.	.	.
*	*	*	*Xlig	*	*	*	*	*
4BB/	.	.	.	.	.	.	.	.
4C/	.	.	.	.	.	.	4ee\	o-
!	!	!	!	!	!LO:TX:t=P:problem:kreska pseudotaktowa	!	!LO:TX:t=P:problem:kreska pseudotaktowa	!
4D/	.	.	4c\	-gi-	4f\	.	4dd\	.
*	*	*	*Xcol	*	*	*	*	*
!	!	!	!LO:TX:t=P:problem:kreska pseudotaktowa	!	!	!	!	!
4E\	.	.	1c	-ne(m),	4g\	.	4cc\	.
4D\	.	.	.	.	4f\	.	4g/	.
!	!	!	!	!	!LO:TX:t=P:problem:kreska pseudotaktowa	!	!	!
4E\	.	.	.	.	2e\	.	1cc\	-ri-
4F\	.	.	.	.	.	.	.	.
!LO:LB:g=original	!	!	!	!	!	!	!	!
=12-	=12-	=12-	=12-	=12-	=12-	=12-	=12-	=12-
2.G\	-ri-	.	1G	Pa-	2.d\	-ri-	.	.
!	!	!	!	!	!	!	!LO:TX:t=P:problem:kreska pseudotaktowa	!
.	.	.	.	.	.	.	2b\	-gi-
!LO:TX:t=P:problem:kreska pseudotaktowa	!	!	!	!	!	!	!	!
4G\	-gi-	.	.	.	4d\	-gi-	.	.
*	*	*	*lig	*	*	*	*	*
!	!	!	!LO:LB:g=original	!	!LO:TX:t=P:problem:kreska pseudotaktowa	!	!LO:TX:t=P:problem:kreska pseudotaktowa	!
2C/	-ne(m)	.	1c	-re(m)	1e	-ne(m)	1cc	-ne(m)
2C/	Pa-	.	.	.	.	.	.	.
=13-	=13-	=13-	=13-	=13-	=13-	=13-	=13-	=13-
*lig	*	*	*	*	*	*	*	*
!	!	!	!LO:TX:t=P:problem:kreska pseudotaktowa	!	!	!	!	!
1F	-re(m)	.	1d	.	0r	.	1r	.
*	*	*	*Xlig	*	*	*	*	*
!LO:TX:t=P:problem:kreska pseudotaktowa	!	!	!	!	!	!	!LO:TX:a:t=P:problem:niezidentyfikowany symbol (signum congruentiae?)	!
1G	.	.	1B	Pa-	.	.	1g	pa-
*Xlig	*	*	*	*	*	*	*	*
=14-	=14-	=14-	=14-	=14-	=14-	=14-	=14-	=14-
*	*	*	*lig	*	*	*	*	*
!	!	!	!	!	!LO:TX:a:t=P:problem:niezidentyfikowany symbol (signum congruentiae?)	!	!	!
2E\	Pa-	.	1c	-ter-	1c	Pa-	(<1cc	-rem
1A	-ter-	.	.	.	.	.	.	.
.	.	.	1B	.	2f\	-re(m)	2dd\)	.
!LO:TX:t=P:problem:kreska pseudotaktowa	!	!	!	!	!LO:TX:t=P:problem:kreska pseudotaktowa	!	!LO:TX:t=P:problem:kreska pseudotaktowa	!
2G\	-nae	.	.	.	2g\	Pa-	2b\	Pa-
*	*	*	*Xlig	*	*	*	*	*
=15-	=15-	=15-	=15-	=15-	=15-	=15-	=15-	=15-
*lig	*	*	*lig	*	*	*	*	*
1F	glo-	.	1A	-nae	4a\	-ter-	4cc\	-ter-
.	.	.	.	.	4g\	.	4a\	-nae
!	!	!	!	!	!	!	!LO:SIC:v:t=custos cc	!
.	.	.	.	.	4f\	.	1dd	glo-
!	!	!	!	!	!LO:TX:t=P:problem:kreska pseudotaktowa	!	!	!
.	.	.	.	.	4e\	.	.	.
!LO:TX:t=P:problem:kreska pseudotaktowa	!	!	!LO:TX:t=P:problem:kreska pseudotaktowa	!	!	!	!	!
1E	.	.	1G	.	4g\	.	.	.
.	.	.	.	.	4f\	.	.	.
!	!	!	!	!	!	!	!LO:LB:g=original	!
.	.	.	.	.	4e\	.	1ccn\	.
!	!	!	!	!	!LO:TX:t=P:problem:kreska pseudotaktowa	!	!	!
.	.	.	.	.	4c\	.	.	.
*Xlig	*	*	*Xlig	*	*	*	*	*
=16-	=16-	=16-	=16-	=16-	=16-	=16-	=16-	=16-
1D	.	.	1A	glo-	1f	.	.	.
!	!	!	!	!	!	!	!LO:TX:t=P:problem:kreska pseudotaktowa	!
.	.	.	.	.	.	.	2b\	.
2C/	.	.	1E	-ri-	2e\	-nae	4cc\	.
.	.	.	.	.	.	.	4g\	.
!LO:TX:t=P:problem:kreska pseudotaktowa:między nutą a kropką	!	!	!	!	!	!	!	!
2.AA/	.	.	.	.	2.e\	glo-	4a\	.
!	!	!	!	!	!	!	!LO:TX:t=P:problem:kreska pseudotaktowa	!
.	.	.	.	.	.	.	4b\	.
=17-	=17-	=17-	=17-	=17-	=17-	=17-	=17-	=17-
*	*	*	*lig	*	*	*	*	*
.	.	.	1E	-ae	.	.	4cc\	.
4BB/	.	.	.	.	4d\	.	4dd\	.
4C/	.	.	.	.	4c\	.	4ee\	.
!LO:TX:t=P:problem:kreska pseudotaktowa	!	!	!	!	!LO:TX:t=P:problem:kreska pseudotaktowa	!	!	!
4D/	.	.	.	.	4A/	.	8dd\L	.
.	.	.	.	.	.	.	8cc\J	.
!	!	!	!LO:TX:a:t=P:problem:# above	!	!	!	!	!
2.E\	.	.	1G#X	.	2.e\	.	2.b\	.
!LO:TX:t=P:problem:kreska pseudotaktowa	!	!	!	!	!	!	!	!
4E\	-ri-	.	.	.	4e\	-ri-	4b\	-ri-
*	*	*	*Xlig	*	*	*	*	*
=18-	=18-	=18-	=18-	=18-	=18-	=18-	=18-	=18-
!LO:TX:t=P:problem:kreska pseudotaktowa	!	!	!LO:TX:t=P:problem:kreska pseudotaktowa	!	!LO:TX:t=P:problem:kreska pseudotaktowa	!	!LO:TX:t=P:problem:kreska pseudotaktowa	!
1AA	-ae	.	1A	.	1e	-ae	1cc	-ae
!	!	!	!	!	!LO:SIC:v:t=custos f	!	!	!
0rBB	.	.	1D	Pa-	2d\	Pa-	0r	.
!	!	!	!	!	!LO:LB:g=original	!	!	!
.	.	.	.	.	2.f\	-ter	.	.
=19-	=19-	=19-	=19-	=19-	=19-	=19-	=19-	=19-
!	!	!	!LO:TX:t=P:problem:kreska pseudotaktowa	!	!	!	!	!
.	.	.	1F	-ter	.	.	.	.
.	.	.	.	.	4g\	Sup-	.	.
!	!	!	!	!	!LO:TX:t=P:problem:kreska pseudotaktowa	!	!	!
.	.	.	.	.	2.a\	-re-	.	.
!LO:TX:t=P:problem:kreska pseudotaktowa	!	!	!	!	!	!	!	!
1rD	.	.	1F	Sup-	.	.	2.a\	Pa-
.	.	.	.	.	4g\	.	.	.
!	!	!	!	!	!LO:TX:t=P:problem:kreska pseudotaktowa	!	!	!
.	.	.	.	.	2f\	.	.	.
!	!	!	!	!	!	!	!LO:TX:t=P:problem:kreska pseudotaktowa	!
.	.	.	.	.	.	.	4b\	.
=20-	=20-	=20-	=20-	=20-	=20-	=20-	=20-	=20-
*	*	*	*lig	*	*	*	*	*
1AA	Pa-	.	1A	-re-	2e\	-m(us)	2cc\	-ter
!	!	!	!	!	!	!	!LO:TX:t=P:problem:kreska pseudotaktowa	!
.	.	.	.	.	2a\	Pa-	2cc\	Sup-
2D/	-ter	.	1B-X	.	2f\	-ter	1dd	-re-
!LO:TX:t=P:problem:kreska pseudotaktowa	!	!	!	!	!LO:TX:t=P:problem:kreska pseudotaktowa	!	!	!
2E\	Sup-	.	.	.	2g\	Sup-	.	.
*	*	*	*Xlig	*	*	*	*	*
=21-	=21-	=21-	=21-	=21-	=21-	=21-	=21-	=21-
*	*	*	*lig	*	*	*	*	*
1F	-re-	.	1A	-m(us)	2a\	-re-	2cc\	-m(us)
!	!	!	!	!	!LO:TX:t=P:problem:kreska pseudotaktowa	!	!LO:TX:t=P:problem:kreska pseudotaktowa	!
.	.	.	.	.	2d\	-m(us)	2dd\	e-
!	!	!	!LO:TX:t=P:problem:kreska pseudotaktowa	!	!	!	!	!
2E\	.	.	1Gny	.	2.e\	e-	2b\	.
!LO:TX:t=P:problem:kreska pseudotaktowa:między nutą a kropką	!	!	!	!	!	!	!	!
2.C/	-m(us)	.	.	.	.	.	2.ee\	.
.	.	.	.	.	4f\	.	.	.
*	*	*	*Xlig	*	*	*	*	*
=22-	=22-	=22-	=22-	=22-	=22-	=22-	=22-	=22-
*	*	*	*lig	*	*	*	*	*
.	.	.	1E	e-	4g\	.	.	.
4D\	e-	.	.	.	4f\	.	4dd\	.
4E\	.	.	.	.	4g\	.	4cc\	.
!LO:TX:t=P:problem:kreska pseudotaktowa	!	!	!	!	!LO:TX:t=P:problem:kreska pseudotaktowa	!	!LO:TX:t=P:problem:kreska pseudotaktowa	!
4C/	.	.	.	.	4e\	.	4b\	.
!LO:LB:g=original	!	!	!	!	!	!	!	!
4D\	.	.	1F	.	4a\	.	1a	.
4E\	.	.	.	.	4g\	.	.	.
1F\	.	.	.	.	4f\	.	.	.
!	!	!	!	!	!LO:TX:t=P:problem:kreska pseudotaktowa	!	!	!
.	.	.	.	.	4e\	.	.	.
*	*	*	*Xlig	*	*	*	*	*
!	!	!	!	!	!	!	!LO:LB:g=original	!
=23-	=23-	=23-	=23-	=23-	=23-	=23-	=23-	=23-
.	.	.	1G	.	2d\	.	2b\	.
!LO:TX:t=P:problem:kreska pseudotaktowa	!	!	!	!	!LO:TX:t=P:problem:kreska pseudotaktowa	!	!LO:TX:t=P:problem:kreska pseudotaktowa	!
2E\	.	.	.	.	2e\	.	2cc#X\	.
1.D	.	.	1.F	.	1.f	.	1.dd	.
=24-	=24-	=24-	=24-	=24-	=24-	=24-	=24-	=24-
.	.	.	.	.	.	.	.	.
2D/	-di-	.	2F/	-di-	2d\	-di-	2dd\	-di-
0AAl;;	-dit	.	0El;;	-dit	0el;;	-dit	0cc#Xl;;	-dit
!	!	!	!LO:LB:g=original	!	!	!	!	!
=25||	=25||	=25||	=25||	=25||	=25||	=25||	=25||	=25||
*M3/2	*	*	*M3/2	*	*M3/2	*	*M3/2	*
2D/	Me-	.	2d\	Me-	2f\	Me-	2a\	Me-
!LO:TX:b:t=P:problem:# below	!	!	!	!	!	!	!	!
2C#X/	-men-	.	2A/	-men-	2e\	-men-	2a\	-men-
!LO:TX:t=P:problem:kreska pseudotaktowa	!	!	!LO:TX:t=P:problem:kreska pseudotaktowa	!	!LO:TX:t=P:problem:kreska pseudotaktowa	!	!LO:TX:t=P:problem:kreska pseudotaktowa	!
2D/	-to	.	2d\	-to	2f\	-to	2a\	-to
!	!	!	!	!	!LO:LB:g=original	!	!	!
=26-	=26-	=26-	=26-	=26-	=26-	=26-	=26-	=26-
1GG	re-	.	1d	re-	1f	re-	1b-X	re-
!LO:TX:t=P:problem:kreska pseudotaktowa	!	!	!LO:TX:t=P:problem:kreska pseudotaktowa	!	!LO:TX:t=P:problem:kreska pseudotaktowa	!	!LO:TX:t=P:problem:kreska pseudotaktowa	!
2Cny/	-ru(m)	.	2c\	-ru(m)	2e\	-ru(m)	2g\	-ru(m)
=27-	=27-	=27-	=27-	=27-	=27-	=27-	=27-	=27-
2.F\	Con-	.	2.c\	Con-	2.f\	Con-	2.a\	Con-
4F\	-di-	.	4c\	-di-	4f\	-di-	4a\	-di-
!LO:TX:t=P:problem:kreska pseudotaktowa	!	!	!LO:TX:t=P:problem:kreska pseudotaktowa	!	!LO:TX:t=P:problem:kreska pseudotaktowa	!	!LO:TX:t=P:problem:kreska pseudotaktowa	!
2F\	-tor	.	2c\	-tor	2f\	-tor	2a\	-tor
=28-	=28-	=28-	=28-	=28-	=28-	=28-	=28-	=28-
2A\	Noſ-	.	2A/	Noſ-	2e\	Noſ-	2cc\	No-
2G\	-tri	.	2B\	-tri	2e\	-tri	2bn\	-stri
!LO:TX:t=P:problem:kreska pseudotaktowa	!	!	!LO:TX:t=P:problem:kreska pseudotaktowa	!	!LO:TX:t=P:problem:kreska pseudotaktowa	!	!LO:TX:t=P:problem:kreska pseudotaktowa	!
2A\	q(uo)d	.	2A/	q(uo)d	2e\	q(uo)d	2cc\	quod
=29-	=29-	=29-	=29-	=29-	=29-	=29-	=29-	=29-
!LO:N:xstem	!	!	!LO:N:xstem	!	!LO:N:xstem	!	!LO:N:xstem	!
4F\	o-	.	4A/	o-	4f\	o-	4cc\	o-
!LO:N:xstem	!	!	!LO:N:xstem	!	!LO:N:xstem	!	!LO:N:xstem	!
4D\	-lim	.	4A/	-lim	4f\	-lim	4dd\	-lim
2.E\	Cor-	.	2A/	Cor-	2.e\	Cor-	2.b\	Cor-
!	!	!	!LO:TX:t=P:problem:kreska pseudotaktowa	!	!	!	!	!
.	.	.	2G#X/	-po-	.	.	.	.
!LO:TX:t=P:problem:kreska pseudotaktowa	!	!	!	!	!LO:TX:t=P:problem:kreska pseudotaktowa	!	!	!
4E\	-po-	.	.	.	4e\	-po-	4b\	-po-
=30-	=30-	=30-	=30-	=30-	=30-	=30-	=30-	=30-
!	!	!	!LO:TX:t=P:problem:kreska pseudotaktowa	!	!LO:TX:t=P:problem:kreska pseudotaktowa	!	!LO:TX:t=P:problem:kreska pseudotaktowa	!
1.AA	-ris	.	1.A	-ris	1.e	-ris	1.cc#X	-ris
!LO:LB:g=original	!	!	!	!	!	!	!LO:LB:g=original	!
=31-	=31-	=31-	=31-	=31-	=31-	=31-	=31-	=31-
2F\	Sac-	.	2A/	ſac-	2f\	ſac-	2ccn\	Sac-
2F\	-ra-	.	2B\	-ra-	2d\	-ra-	2dd\	-ra-
!LO:TX:t=P:problem:kreska pseudotaktowa	!	!	!LO:TX:t=P:problem:kreska pseudotaktowa	!	!LO:TX:t=P:problem:kreska pseudotaktowa	!	!LO:TX:t=P:problem:kreska pseudotaktowa	!
2E\	-ta	.	2c\	-ta	2g\	-ta	2ee\	-ta
=32-	=32-	=32-	=32-	=32-	=32-	=32-	=32-	=32-
2D/	ab	.	2.d\	ab	2.f\	ab	2a\	ab
2D/	al-	.	.	.	.	.	2a\	al-
.	.	.	4d\	al-	4f\	al-	.	.
!LO:TX:t=P:problem:kreska pseudotaktowa	!	!	!LO:TX:t=P:problem:kreska pseudotaktowa	!	!LO:TX:t=P:problem:kreska pseudotaktowa	!	!LO:TX:t=P:problem:kreska pseudotaktowa	!
2D/	-vo	.	2d\	-vo	2f\	-vo	2b\	-vo
=33-	=33-	=33-	=33-	=33-	=33-	=33-	=33-	=33-
2.C/	Vir-	.	2.e\	Vir-	2.e\	Vir-	2.cc\	Vir-
!	!	!	!	!	!LO:N:vis=2	!	!	!
!	!	!	!	!	!LO:TX:t=P:problem:chorągiewka przy półnucie	!	!	!
4C/	-gi-	.	4e\	-gi-	4f\	-gi-	4cc\	-gi-
!LO:TX:t=P:problem:kreska pseudotaktowa	!	!	!LO:TX:t=P:problem:kreska pseudotaktowa	!	!LO:TX:t=P:problem:kreska pseudotaktowa	!	!LO:TX:t=P:problem:kreska pseudotaktowa	!
2C/	-nis	.	2e\	-nis	2g\	-nis	2cc\	-nis
!	!	!	!LO:LB:g=original	!	!	!	!	!
=34-	=34-	=34-	=34-	=34-	=34-	=34-	=34-	=34-
2AA/	Naſ-	.	2e\	Naſ-	2a\	Naſ-	2cc#X\	Naſ-
2BB/	-cen-	.	2B\	-cen-	2g\	-cen-	2dd\	-cen-
!LO:TX:t=P:problem:kreska pseudotaktowa	!	!	!	!	!LO:TX:t=P:problem:kreska pseudotaktowa	!	!	!
2C#X/	-do	.	2e\	-do	2g\	-do	2ee\	-do
=35-	=35-	=35-	=35-	=35-	=35-	=35-	=35-	=35-
!LO:N:xstem	!	!	!LO:N:xstem	!	!LO:N:xstem	!	!LO:N:xstem	!
4D/	for-	.	4d\	for-	4f\	for-	4ff\	for-
!LO:N:xstem	!	!	!LO:N:xstem	!	!LO:N:xstem	!	!LO:N:xstem	!
4GG/	-ma(m)	.	4B\	-ma(m)	4g\	-ma(m)	4dd\	-mam
2.AA/	Sum-	.	2.A/	Sum-	2.e\	ſu(m)-	2dd\	Sum-
!	!	!	!	!	!	!	!LO:TX:t=P:problem:brak kreski taktowej	!
.	.	.	.	.	.	.	2cc#X\	-pſe-
!	!	!	!	!	!LO:SIC:v:t=custos f	!	!	!
4AA/	-pſe-	.	4A/	-pſe-	4e\	-p[se]-	.	.
!	!	!	!	!	!LO:LB:g=original	!	!	!
=36-	=36-	=36-	=36-	=36-	=36-	=36-	=36-	=36-
1.D;;	-ris	.	1.Al;;	-ris	1.f#X;;	-ris	1.dd;;	-ris
=37||	=37||	=37||	=37||	=37||	=37||	=37||	=37||	=37||
*M2/1	*	*	*M2/1	*	*M2/1	*	*M2/1	*
*met(C|)	*	*	*met(C|)	*	*met(C|)	*	*met(C|)	*
!	!	!	!	!	!LO:TX:t=P:problem:kreska pseudotaktowa	!	!LO:TX:t=P:problem:kreska pseudotaktowa	!
00r	.	.	00r	.	00r	.	1d	Hunc
.	.	.	.	.	.	.	1f	ast-
=38-	=38-	=38-	=38-	=38-	=38-	=38-	=38-	=38-
!	!	!	!	!	!	!	!LO:SIC:v:t=custos g	!
!	!	!	!	!	!	!	!LO:TX:t=P:problem:kreska pseudotaktowa	!
.	.	.	.	.	.	.	1f	-ra
*	*	*	*	*	*	*	*lig	*
!	!	!	!	!	!	!	!LO:LB:g=original	!
.	.	.	.	.	.	.	1g	tel-
=39-	=39-	=39-	=39-	=39-	=39-	=39-	=39-	=39-
!	!	!	!	!	!	!	!LO:TX:t=P:problem:kreska pseudotaktowa	!
00r	.	.	0r	.	1A	Hunc	1a	.
*	*	*	*	*	*	*	*Xlig	*
.	.	.	.	.	2B/	aſt-	2d/	-l(us)
!	!	!	!	!	!LO:TX:t=P:problem:kreska pseudotaktowa	!	!	!
.	.	.	.	.	2B/	-ra	1g/	ae-
=40-	=40-	=40-	=40-	=40-	=40-	=40-	=40-	=40-
*	*	*	*	*	*lig	*	*	*
!	!	!	!LO:TX:t=P:problem:kreska pseudotaktowa	!	!	!	!	!
.	.	.	1r	.	1c#X	tel-	.	.
!	!	!	!	!	!	!	!LO:TX:t=P:problem:kreska pseudotaktowa	!
.	.	.	.	.	.	.	2e/	.
!	!	!	!LO:TX:t=P:problem:kreska pseudotaktowa	!	!	!	!	!
.	.	.	1D	Hunc	1d	.	4f/	.
.	.	.	.	.	.	.	4g/	.
.	.	.	.	.	.	.	4f/	.
!	!	!	!	!	!	!	!LO:TX:t=P:problem:kreska pseudotaktowa	!
.	.	.	.	.	.	.	4e/	.
*	*	*	*	*	*Xlig	*	*	*
=41-	=41-	=41-	=41-	=41-	=41-	=41-	=41-	=41-
0r	.	.	1F	aſt-	2A/	-l(us)	4d/	.
.	.	.	.	.	.	.	4e/	.
.	.	.	.	.	4d\	ae-	4f/	.
!	!	!	!	!	!LO:TX:t=P:problem:kreska pseudotaktowa	!	!LO:TX:t=P:problem:kreska pseudotaktowa	!
.	.	.	.	.	4e\	.	4g/	.
!	!	!	!LO:TX:t=P:problem:kreska pseudotaktowa	!	!	!	!	!
.	.	.	1F	-ra	2f\	.	4a\	.
.	.	.	.	.	.	.	4b\	.
.	.	.	.	.	2d\	.	4cc\	.
!	!	!	!	!	!	!	!LO:TX:t=P:problem:kreska pseudotaktowa	!
.	.	.	.	.	.	.	4a\	.
=42-	=42-	=42-	=42-	=42-	=42-	=42-	=42-	=42-
*	*	*	*lig	*	*	*	*	*
!LO:TX:t=P:problem:kreska pseudotaktowa	!	!	!	!	!	!	!	!
1r	.	.	1G	tel-	2.g\	.	4b\	.
.	.	.	.	.	.	.	4cc\	.
.	.	.	.	.	.	.	1dd	.
!	!	!	!	!	!LO:TX:t=P:problem:kreska pseudotaktowa	!	!	!
.	.	.	.	.	4f\	.	.	.
1AA	Hunc	.	1A	.	2.e\	.	.	.
!	!	!	!	!	!	!	!LO:TX:t=P:problem:kreska pseudotaktowa	!
.	.	.	.	.	.	.	2cc#X\	-quo-
!	!	!	!	!	!LO:TX:t=P:problem:kreska pseudotaktowa	!	!	!
.	.	.	.	.	4e\	-qvo-	.	.
*	*	*	*Xlig	*	*	*	*	*
=43-	=43-	=43-	=43-	=43-	=43-	=43-	=43-	=43-
!	!	!	!LO:TX:t=P:problem:kreska pseudotaktowa	!	!	!	!	!
2BB/	ast-	.	1D	-l(us)	2d\	-ra	1dd	-ra
!LO:SIC:v:t=custos C	!	!	!	!	!	!	!	!
2BB/	-ra	.	.	.	2.g\	tel-	.	.
*lig	*	*	*lig	*	*	*	*	*
!LO:LB:g=original	!	!	!	!	!	!	!	!
1C#X	tel-	.	1E	ae-	.	.	1r	.
.	.	.	.	.	4f\	.	.	.
!	!	!	!	!	!LO:TX:t=P:problem:kreska pseudotaktowa	!	!	!
.	.	.	.	.	2e\	.	.	.
=44-	=44-	=44-	=44-	=44-	=44-	=44-	=44-	=44-
1D	.	.	1F	.	4a\	.	1a	hunc
.	.	.	.	.	4g\	.	.	.
.	.	.	.	.	4f\	.	.	.
!	!	!	!	!	!LO:TX:t=P:problem:kreska pseudotaktowa	!	!	!
.	.	.	.	.	4e\	.	.	.
*Xlig	*	*	*Xlig	*	*	*	*	*
*	*	*	*lig	*	*	*	*	*
2GG/	-l(us)	.	1G	.	2d\	.	2b-X\	aſt-
!LO:TX:t=P:problem:kreska pseudotaktowa	!	!	!	!	!	!	!LO:TX:t=P:problem:kreska pseudotaktowa	!
2Cny/	ae-	.	.	.	2e\	.	2b-\	-ra
=45-	=45-	=45-	=45-	=45-	=45-	=45-	=45-	=45-
2.FF/	.	.	1F	.	2A/	-l(us)	4ccny\	tel-
.	.	.	.	.	.	.	4a\	.
.	.	.	.	.	1d	ae-	1dd	-l(us)
!LO:TX:t=P:problem:kreska pseudotaktowa	!	!	!	!	!	!	!	!
4GG/	.	.	.	.	.	.	.	.
*	*	*	*Xlig	*	*	*	*	*
*	*	*	*lig	*	*	*	*	*
2.AA/	.	.	1E	.	.	.	.	.
!	!	!	!	!	!LO:TX:t=P:problem:kreska pseudotaktowa	!	!LO:TX:t=P:problem:kreska pseudotaktowa	!
.	.	.	.	.	2e\	.	2cc#X\	[tel]-
!LO:TX:t=P:problem:kreska pseudotaktowa	!	!	!	!	!	!	!	!
4AA/	-qvo-	.	.	.	.	.	.	.
=46-	=46-	=46-	=46-	=46-	=46-	=46-	=46-	=46-
!LO:TX:t=P:problem:kreska pseudotaktowa	!	!	!	!	!	!	!	!
*	*	*	*col	*	*	*	*	*
!	!	!	!	!	!LO:TX:t=P:problem:kreska pseudotaktowa	!	!LO:SIC:v:t=custos a	!
1D	-ra	.	2.D/	.	1f	.	2dd\	-l(us)
!	!	!	!	!	!	!	!LO:LB:g=original	!
.	.	.	.	.	.	.	2.a\	ae-
*	*	*	*Xlig	*	*	*	*	*
.	.	.	4D/	-qvo-	.	.	.	.
*	*	*	*Xcol	*	*	*	*	*
!	!	!	!LO:TX:t=P:problem:kreska pseudotaktowa	!	!LO:LB:g=original	!	!	!
0r	.	.	1E	-ra	2.e\	.	.	.
!	!	!	!	!	!	!	!LO:TX:a:t=P:problem:# above	!
!	!	!	!	!	!	!	!LO:N:acc=#	!
.	.	.	.	.	.	.	4bnX\	.
.	.	.	.	.	.	.	1ccny\	.
!	!	!	!	!	!LO:TX:t=P:problem:kreska pseudotaktowa	!	!	!
.	.	.	.	.	4e\	-quo-	.	.
=47-	=47-	=47-	=47-	=47-	=47-	=47-	=47-	=47-
!	!	!	!	!	!LO:TX:t=P:problem:kreska pseudotaktowa	!	!	!
.	.	.	1G	hunc	1d	-ra	.	.
.	.	.	.	.	.	.	2b\	-quo-
*	*	*	*lig	*	*	*	*	*
!	!	!	!	!	!	!	!LO:TX:t=P:problem:kreska pseudotaktowa	!
1r	.	.	1A	o-	2r	.	1a	-ra
!	!	!	!	!	!LO:TX:t=P:problem:kreska pseudotaktowa	!	!	!
.	.	.	.	.	2cny/	hunc	.	.
=48-	=48-	=48-	=48-	=48-	=48-	=48-	=48-	=48-
2rBB	.	.	1c	.	2e\	om-	1r	.
!LO:TX:t=P:problem:kreska pseudotaktowa	!	!	!	!	!	!	!	!
2C/	hunc	.	.	.	2e\	-ne	.	.
*	*	*	*Xlig	*	*	*	*	*
!	!	!	!LO:TX:t=P:problem:kreska pseudotaktowa	!	!	!	!	!
!	!	!	!LO:LB:g=original	!	!	!	!	!
2E\	om-	.	1c	-mne	2g\	om-	2r	.
!LO:TX:t=P:problem:kreska pseudotaktowa	!	!	!	!	!	!	!LO:TX:t=P:problem:kreska pseudotaktowa	!
2E\	-ne	.	.	.	4e\	-ne	2g/	hunc
!	!	!	!	!	!LO:TX:t=P:problem:kreska pseudotaktowa	!	!	!
.	.	.	.	.	4e\	q(uo)d	.	.
=49-	=49-	=49-	=49-	=49-	=49-	=49-	=49-	=49-
*	*	*	*lig	*	*	*	*	*
2F\	.	.	1c	quod	4a\	Cae-	2a\	om-
.	.	.	.	.	4g\	.	.	.
!LO:TX:t=P:problem:kreska pseudotaktowa	!	!	!	!	!	!	!LO:TX:t=P:problem:kreska pseudotaktowa	!
2F\	quod	.	.	.	4f\	.	2a\	-ne
!	!	!	!	!	!LO:TX:t=P:problem:kreska pseudotaktowa	!	!	!
.	.	.	.	.	4e\	.	.	.
!	!	!	!LO:TX:t=P:problem:kreska pseudotaktowa	!	!	!	!	!
4G\	Cae-	.	1B	.	2d\	.	2b\	q(uo)d
4F\	.	.	.	.	.	.	.	.
!	!	!	!	!	!	!	!LO:TX:t=P:problem:kreska pseudotaktowa	!
4E\	.	.	.	.	1e\	.	2b\	coe-
!LO:TX:t=P:problem:kreska pseudotaktowa	!	!	!	!	!	!	!	!
4D\	.	.	.	.	.	.	.	.
*	*	*	*Xlig	*	*	*	*	*
=50-	=50-	=50-	=50-	=50-	=50-	=50-	=50-	=50-
*	*	*	*lig	*	*	*	*	*
2C/	-lo	.	1A	Cae-	.	.	2cc\	-lo
!	!	!	!	!	!LO:TX:a:t=P:problem:# above	!	!	!
!	!	!	!	!	!LO:TX:t=P:problem:kreska pseudotaktowa	!	!LO:TX:t=P:problem:kreska pseudotaktowa	!
2D/	Sub-	.	.	.	2f#X\	.	2a\	Sub-
2GG/	-eſt	.	1G	.	2g\	.	2b\	-eſt
!LO:TX:t=P:problem:kreska pseudotaktowa	!	!	!	!	!	!	!LO:TX:t=P:problem:kreska pseudotaktowa	!
2E\	quod	.	.	.	2a\	.	2ee\	quod
*	*	*	*Xlig	*	*	*	*	*
=51-	=51-	=51-	=51-	=51-	=51-	=51-	=51-	=51-
*	*	*	*lig	*	*	*	*	*
4F\	Cae-	.	1A	-lo	1fn	.	4cc\	Coe-
4E\	.	.	.	.	.	.	4g\	.
4F\	.	.	.	.	.	.	2.cc\	.
!LO:TX:t=P:problem:kreska pseudotaktowa	!	!	!	!	!	!	!	!
4G\	.	.	.	.	.	.	.	.
!	!	!	!LO:TX:t=P:problem:kreska pseudotaktowa	!	!LO:TX:t=P:problem:kreska pseudotaktowa	!	!	!
4A\	.	.	1c	.	1e	-lo	.	.
!LO:SIC:v:t=custos A	!	!	!	!	!	!	!	!
4G\	.	.	.	.	.	.	4b\	.
!LO:LB:g=original	!	!	!	!	!	!	!	!
4A\	.	.	.	.	.	.	4cc\	.
!LO:TX:t=P:problem:kreska pseudotaktowa	!	!	!	!	!	!	!LO:TX:t=P:problem:kreska pseudotaktowa	!
4B\	.	.	.	.	.	.	4dd\	.
*	*	*	*Xlig	*	*	*	*	*
=52-	=52-	=52-	=52-	=52-	=52-	=52-	=52-	=52-
4c\	.	.	1c	Sub-	2r	.	4ee\	.
4B\	.	.	.	.	.	.	4dd\	.
!	!	!	!	!	!LO:TX:t=P:problem:kreska pseudotaktowa	!	!	!
4A\	.	.	.	.	2e\	q(uo)d	4cc\	.
!LO:TX:t=P:problem:kreska pseudotaktowa	!	!	!	!	!	!	!LO:TX:t=P:problem:kreska pseudotaktowa	!
4G\	.	.	.	.	.	.	4b\	.
!	!	!	!LO:TX:t=P:problem:kreska pseudotaktowa	!	!	!	!	!
2F\	.	.	1c	-eſt	4c\	Cae-	4a\	.
.	.	.	.	.	4d\	.	4b\	.
!LO:TX:t=P:problem:kreska pseudotaktowa	!	!	!	!	!	!	!	!
2C/	.	.	.	.	4e\	.	1cc\	-lo
!	!	!	!	!	!LO:TX:t=P:problem:kreska pseudotaktowa	!	!	!
.	.	.	.	.	4f\	.	.	.
=53-	=53-	=53-	=53-	=53-	=53-	=53-	=53-	=53-
2.G\	-lo	.	1G	Sa-	2d\	-lo	.	.
!	!	!	!	!	!LO:TX:t=P:problem:kreska pseudotaktowa	!	!LO:TX:t=P:problem:kreska pseudotaktowa	!
.	.	.	.	.	2d\	Sub-	2b\	ſub-
4G\	Sub-	.	.	.	.	.	.	.
*	*	*	*lig	*	*	*	*	*
!LO:TX:t=P:problem:kreska pseudotaktowa	!	!	!	!	!LO:TX:t=P:problem:cezura na 3. linii	!	!	!
1C	-eſt	.	1G	-lu-	1e,<	-eſt	1cc	-est
!	!	!	!	!	!LO:LB:g=original	!	!LO:LB:g=original	!
=54-	=54-	=54-	=54-	=54-	=54-	=54-	=54-	=54-
!	!	!	!	!	!	!	!LO:TX:a:t=2	!
00rF	.	.	1c	.	2r	.	0r	.
!	!	!	!	!	!LO:TX:t=P:problem:kreska pseudotaktowa	!	!	!
.	.	.	.	.	2c/	Sa-	.	.
*	*	*	*Xlig	*	*lig	*	*	*
.	.	.	1d	-tis	1f	-lu-	.	.
=55-	=55-	=55-	=55-	=55-	=55-	=55-	=55-	=55-
!	!	!	!LO:TX:t=P:problem:kreska pseudotaktowa	!	!	!	!	!
!	!	!	!LO:TX:t=P:problem:cezura na 2. linii	!	!	!	!	!
.	.	.	1B,<	auc-	1g	.	1g	Sa-
*	*	*	*lig	*	*Xlig	*	*	*
.	.	.	1c	-to-	4e\	-tis	1cc	-lu-
.	.	.	.	.	4e\	auc-	.	.
!	!	!	!	!	!LO:TX:t=P:problem:kreska pseudotaktowa:między nutą a kropką	!	!	!
.	.	.	.	.	2.a\	-to-	.	.
=56-	=56-	=56-	=56-	=56-	=56-	=56-	=56-	=56-
!LO:TX:t=P:problem:kreska pseudotaktowa	!	!	!	!	!	!	!	!
0r	.	.	1B	.	.	.	2dd\	-tis
.	.	.	.	.	4d\	-re(m)	.	.
!	!	!	!	!	!	!	!LO:TX:t=P:problem:kreska pseudotaktowa	!
.	.	.	.	.	1g	no-	2b\	auc-
*	*	*	*Xlig	*	*	*	*	*
*	*	*	*lig	*	*	*	*	*
.	.	.	1A	-rem	.	.	1cc	-to-
!	!	!	!	!	!LO:TX:t=P:problem:kreska pseudotaktowa	!	!	!
.	.	.	.	.	2f#X\	.	.	.
=57-	=57-	=57-	=57-	=57-	=57-	=57-	=57-	=57-
2rBB	.	.	1G	.	2g\	-vae	2b\	-re(m)
!LO:TX:t=P:problem:kreska pseudotaktowa	!	!	!	!	!LO:TX:t=P:problem:kreska pseudotaktowa	!	!LO:TX:t=P:problem:kreska pseudotaktowa	!
2C/	Sa-	.	.	.	2e\	Sa-	2cc\	auc-
*	*	*	*Xlig	*	*	*	*	*
!	!	!	!LO:TX:t=P:problem:kreska pseudotaktowa	!	!	!	!	!
2F\	-lu-	.	1A	.	4c/	-lu-	1a	-to-
.	.	.	.	.	4B/	.	.	.
!LO:TX:t=P:problem:kreska pseudotaktowa	!	!	!	!	!	!	!	!
2F\	-tis	.	.	.	4c/	.	.	.
!	!	!	!	!	!LO:TX:t=P:problem:kreska pseudotaktowa	!	!	!
.	.	.	.	.	4d\	.	.	.
=58-	=58-	=58-	=58-	=58-	=58-	=58-	=58-	=58-
2E\	auc-	.	1E	no-	2e\	-tiſ	2g/	-re(m)
!	!	!	!	!	!LO:TX:t=P:problem:kreska pseudotaktowa	!	!	!
2.C/	-to-	.	.	.	[2e\	no-	1cc	Sa-
*	*	*	*lig	*	*	*	*	*
!	!	!	!	!	!LO:N:xstem:cue	!	!	!
.	.	.	1E	-vae	4e]	.	.	.
4BB/	.	.	.	.	4d\)	.	.	.
!	!	!	!	!	!	!	!LO:TX:t=P:problem:kreska pseudotaktowa	!
4C/	-re(m)	.	.	.	4c/	.	2cc\	-lu-
!LO:TX:t=P:problem:kreska pseudotaktowa	!	!	!	!	!	!	!	!
4D/	.	.	.	.	4A/	.	.	.
=59-	=59-	=59-	=59-	=59-	=59-	=59-	=59-	=59-
!	!	!	!LO:TX:a:t=P:problem:# above	!	!LO:TX:t=P:problem:kreska pseudotaktowa	!	!	!
1E	no-	.	1G#X	.	1e	.	2b\	-tis
.	.	.	.	.	.	.	2b\	no-
*	*	*	*Xlig	*	*	*	*	*
!LO:TX:t=P:problem:kreska pseudotaktowa	!	!	!LO:TX:t=P:problem:kreska pseudotaktowa	!	!LO:TX:t=P:problem:cezura na 3. linii	!	!LO:TX:t=P:problem:kreska pseudotaktowa	!
1AA	-vae	.	1A	.	1e,<	-vae	0a	-vae
=60-	=60-	=60-	=60-	=60-	=60-	=60-	=60-	=60-
0r	.	.	1D	no-	2d\	no-	.	.
!	!	!	!	!	!LO:TX:t=P:problem:kreska pseudotaktowa	!	!	!
.	.	.	.	.	[<2fny\	-vo	.	.
!	!	!	!LO:SIC:v:t=custos F	!	!LO:N:xstem:cue	!	!	!
.	.	.	1F	-vo	4f]	.	1r	.
.	.	.	.	.	4g\)	.	.	.
.	.	.	.	.	1a\	Sa-	.	.
!	!	!	!LO:LB:g=original	!	!	!	!	!
=61-	=61-	=61-	=61-	=61-	=61-	=61-	=61-	=61-
1r	.	.	1F	Sa-	.	.	1a	no-
!	!	!	!	!	!LO:TX:t=P:problem:kreska pseudotaktowa	!	!	!
.	.	.	.	.	2f\	-lu-	.	.
2rGG	.	.	1A	-lu-	4e\	-tat	2.cc\	-vo
.	.	.	.	.	4d\	.	.	.
!LO:TX:t=P:problem:kreska pseudotaktowa	!	!	!	!	!	!	!	!
2AA/	No-	.	.	.	4c/	.	.	.
!	!	!	!	!	!LO:TX:t=P:problem:kreska pseudotaktowa	!	!LO:TX:t=P:problem:kreska pseudotaktowa	!
.	.	.	.	.	4B/	.	4dd\	ſa-
=62-	=62-	=62-	=62-	=62-	=62-	=62-	=62-	=62-
*	*	*	*lig	*	*	*	*	*
2C/	-vo	.	1A	-tat	2A/	Can-	1ee	-lu-
!LO:TX:t=P:problem:kreska pseudotaktowa	!	!	!	!	!	!	!	!
2C/	Sa-	.	.	.	4a\	.	.	.
!	!	!	!	!	!LO:SIC:v:t=custos f	!	!	!
!	!	!	!	!	!LO:TX:t=P:problem:kreska pseudotaktowa	!	!	!
.	.	.	.	.	4g\	.	.	.
!	!	!	!LO:TX:t=P:problem:♭ przed ligaturą	!	!LO:LB:g=original	!	!LO:TX:t=P:problem:kreska pseudotaktowa	!
2D/	-lu-	.	1B-X	.	2f\	.	1dd	.
!LO:TX:t=P:problem:kreska pseudotaktowa	!	!	!	!	!	!	!	!
2E\	-tat	.	.	.	1e\	.	.	.
*	*	*	*Xlig	*	*	*	*	*
!LO:LB:g=original	!	!	!	!	!	!	!	!
=63-	=63-	=63-	=63-	=63-	=63-	=63-	=63-	=63-
*	*	*	*lig	*	*	*	*	*
2.F\	Can-	.	1A	.	.	.	2cc\	-tat
!	!	!	!	!	!LO:TX:t=P:problem:kreska pseudotaktowa	!	!LO:TX:t=P:problem:kreska pseudotaktowa	!
.	.	.	.	.	2d\	-ti-	2dd\	Can-
!LO:TX:t=P:problem:kreska pseudotaktowa	!	!	!	!	!	!	!	!
4F\	-ti-	.	.	.	.	.	.	.
!	!	!	!LO:TX:t=P:problem:kreska pseudotaktowa	!	!	!	!	!
2E\	-co	.	1Gny	.	2e\	-co	2b\	.
!LO:TX:t=P:problem:kreska pseudotaktowa:między nutą a kropką	!	!	!	!	!	!	!LO:TX:t=P:problem:kreska pseudotaktowa	!
2.E\	Can-	.	.	.	1B/	Sa-	[<2ee\	.
*	*	*	*Xlig	*	*	*	*	*
=64-	=64-	=64-	=64-	=64-	=64-	=64-	=64-	=64-
*	*	*	*lig	*	*	*	*	*
!	!	!	!	!	!	!	!LO:N:xstem:cue	!
.	.	.	1E	Can-	.	.	4ee\]	.
!LO:TX:t=P:problem:niezidentyfikowany symbol nad nutą	!	!	!	!	!	!	!LO:SIC:v:t=custos ee	!
4D\	.	.	.	.	.	.	4b\	.
!	!	!	!	!	!LO:TX:t=P:problem:kreska pseudotaktowa:między nutą a kropką	!	!LO:LB:g=original	!
4C/	.	.	.	.	2.c/	.	4ee\	.
!LO:TX:t=P:problem:kreska pseudotaktowa	!	!	!	!	!	!	!LO:TX:t=P:problem:kreska pseudotaktowa	!
4BB/	.	.	.	.	.	.	4dd\	.
2AA/	.	.	1F	.	.	.	2cc\	.
.	.	.	.	.	4c/	-lu-	.	.
1BB/	.	.	.	.	1d\	-tat	2.b\	.
*	*	*	*Xlig	*	*	*	*	*
=65-	=65-	=65-	=65-	=65-	=65-	=65-	=65-	=65-
.	.	.	1G	.	.	.	.	.
.	.	.	.	.	.	.	4a\	.
!LO:TX:t=P:problem:kreska pseudotaktowa	!	!	!	!	!LO:TX:t=P:problem:kreska pseudotaktowa	!	!	!
2C#X/	.	.	.	.	2e\	Can-	4g/	.
!	!	!	!	!	!	!	!LO:TX:t=P:problem:kreska pseudotaktowa	!
.	.	.	.	.	.	.	4e/	.
1.D	.	.	1.F	.	4f\	.	4a\	.
.	.	.	.	.	4g\	.	8b\L	.
.	.	.	.	.	.	.	8cc\J	.
.	.	.	.	.	4a\	.	1dd\	.
!	!	!	!	!	!LO:TX:t=P:problem:kreska pseudotaktowa	!	!	!
.	.	.	.	.	4g\	.	.	.
=66-	=66-	=66-	=66-	=66-	=66-	=66-	=66-	=66-
.	.	.	.	.	2f\	.	.	.
2D/	-ti-	.	2F/	-ti-	2d\	-ti-	2dd\	-ti-
!	!	!	!	!	!	!	!LO:TX:b:t=Verte Cito	!
0AAl;;	-co	.	0El;	-co	0el;;	-co	0cc#lX;	-co
!	!	!	!	!	!	!	!LO:PB:g=original	!
=67||	=67||	=67||	=67||	=67||	=67||	=67||	=67||	=67||
*M3/2	*	*	*M3/2	*	*M3/2	*	*M3/2	*
2A\	Je-	.	2c#X\	Je-	2e\	Je-	2a\	Je-
2A\	-ſu	.	2c#\	-ſu	2e\	-ſu	2a\	-ſu
!LO:TX:t=P:problem:kreska pseudotaktowa	!	!	!LO:TX:t=P:problem:kreska pseudotaktowa	!	!LO:TX:t=P:problem:kreska pseudotaktowa	!	!LO:TX:t=P:problem:kreska pseudotaktowa	!
2A\	ti-	.	2c#\	ti-	2e\	ti-	2a\	ti-
=68-	=68-	=68-	=68-	=68-	=68-	=68-	=68-	=68-
1F	-bi	.	1d	-bi	1f	-bi	1a	-bi
!LO:TX:t=P:problem:kreska pseudotaktowa	!	!	!LO:TX:t=P:problem:kreska pseudotaktowa	!	!LO:TX:t=P:problem:kreska pseudotaktowa	!	!LO:TX:t=P:problem:kreska pseudotaktowa	!
2D/	Sit	.	2d\	Sit	2f\	Sit	2a\	Sit
=69-	=69-	=69-	=69-	=69-	=69-	=69-	=69-	=69-
!	!	!	!	!	!LO:N:vis=4.	!	!	!
2.G\	glo-	.	2.B\	glo-	2.d\	glo-	2.g/	glo-
4G\	-ri-	.	4B\	-ri-	4d\	-ri-	4g/	-ri-
!LO:TX:t=P:problem:kreska pseudotaktowa	!	!	!LO:TX:t=P:problem:kreska pseudotaktowa	!	!LO:TX:t=P:problem:kreska pseudotaktowa	!	!LO:TX:t=P:problem:kreska pseudotaktowa	!
2G\	-a	.	2B\	-a	2d\	-a	2g/	-â
!	!	!	!LO:LB:g=original	!	!	!	!	!
=70-	=70-	=70-	=70-	=70-	=70-	=70-	=70-	=70-
!	!	!	!LO:TX:t=P:problem:skreślony takt	!	!	!	!	!
2E\	qui	.	2cny\	qui	2e\	q(u)i	2g/	qvi
2F\	na-	.	2c\	na-	2c\	na-	2a\	na-
!LO:TX:t=P:problem:kreska pseudotaktowa	!	!	!LO:TX:t=P:problem:kreska pseudotaktowa	!	!LO:TX:t=P:problem:kreska pseudotaktowa	!	!LO:TX:t=P:problem:kreska pseudotaktowa	!
!LO:SIC:v:t=custos A	!	!	!	!	!	!	!	!
2G\	-[tus]	.	2B\	-t(us)	2g\	-t(us)	2b\	-t(us)
!LO:LB:g=original	!	!	!	!	!	!	!	!
=71-	=71-	=71-	=71-	=71-	=71-	=71-	=71-	=71-
1A	es	.	4A/	es	1e	eſ	4cc\	es
.	.	.	4G/	.	.	.	4b\	.
.	.	.	4A/	.	.	.	4cc\	.
.	.	.	4B\	.	.	.	4dd\	.
!LO:TX:t=P:problem:kreska pseudotaktowa	!	!	!LO:TX:t=P:problem:kreska pseudotaktowa	!	!LO:TX:t=P:problem:kreska pseudotaktowa	!	!LO:TX:t=P:problem:kreska pseudotaktowa	!
2E\	de	.	2c\	de	2e\	de	2ee\	[[de]]
!	!	!	!	!	!LO:PB:g=original	!	!	!
=72-	=72-	=72-	=72-	=72-	=72-	=72-	=72-	=72-
2F\	Vir-	.	1c	Vir-	2a\	Vir-	2dd\	de
2.G\	.	.	.	.	2.g\	.	2.dd\	Vir-
.	.	.	2B\	-gi-	.	.	.	.
!LO:TX:t=P:problem:kreska pseudotaktowa	!	!	!	!	!LO:TX:t=P:problem:kreska pseudotaktowa	!	!LO:TX:t=P:problem:kreska pseudotaktowa	!
4GG/	-gi-	.	.	.	4g\	-gi-	4dd\	-gi-
=73-	=73-	=73-	=73-	=73-	=73-	=73-	=73-	=73-
!LO:TX:t=P:problem:kreska pseudotaktowa	!	!	!LO:TX:t=P:problem:kreska pseudotaktowa	!	!LO:TX:t=P:problem:kreska pseudotaktowa	!	!LO:TX:t=P:problem:kreska pseudotaktowa	!
1.C	-ne	.	1.c	-ne	1.e	-ne	1.cc	-ne
=74-	=74-	=74-	=74-	=74-	=74-	=74-	=74-	=74-
00.rF	.	.	2c\	Cu(m)	2e\	cu(m)	2g/	Cu(m)
.	.	.	2B\	Pat-	2d\	Pat-	2g/	Pat-
.	.	.	2c\	-re	4e\	-re	4g/	-re
!	!	!	!	!	!LO:TX:t=P:problem:kreska pseudotaktowa	!	!LO:TX:t=P:problem:kreska pseudotaktowa	!
.	.	.	.	.	4g\	et	4g/	et
=75-	=75-	=75-	=75-	=75-	=75-	=75-	=75-	=75-
.	.	.	2A/	et	1g	al-	1a	al-
.	.	.	2A/	al-	.	.	.	.
!	!	!	!LO:TX:t=P:problem:kreska pseudotaktowa	!	!LO:TX:t=P:problem:kreska pseudotaktowa	!	!LO:TX:t=P:problem:kreska pseudotaktowa	!
.	.	.	2d\	-mo	2f#X\	-mo	2a\	-mo
=76-	=76-	=76-	=76-	=76-	=76-	=76-	=76-	=76-
.	.	.	2.G/	Spi-	2.g\	Sp(i-	2.b\	Spi-
.	.	.	4G/	-ri-	4g\	-ri-	4b\	-ri-
!	!	!	!	!	!	!	!LO:SIC:v:t=custos b	!
!	!	!	!LO:TX:t=P:problem:kreska pseudotaktowa	!	!LO:TX:t=P:problem:kreska pseudotaktowa	!	!LO:TX:t=P:problem:kreska pseudotaktowa	!
.	.	.	2G/	-tu	2g\	-t)u	2b\	-tu
!	!	!	!	!	!	!	!LO:LB:g=original	!
=77-	=77-	=77-	=77-	=77-	=77-	=77-	=77-	=77-
.	.	.	2G/	in	2d\	In	2b\	in
!	!	!	!	!	!	!	!LO:TX:a:t=P:problem:# above	!
.	.	.	2G/	Sem-	2e\	Sem-	2cc#X\	Sem-
!	!	!	!	!	!LO:TX:a:t=P:problem:# above	!	!LO:TX:a:t=P:problem:# above	!
!	!	!	!LO:TX:t=P:problem:kreska pseudotaktowa	!	!LO:TX:t=P:problem:kreska pseudotaktowa	!	!LO:TX:t=P:problem:kreska pseudotaktowa	!
.	.	.	2F#X/	-pi-	2f#X\	-pi-	2dd#X\	-pi-
=78-	=78-	=78-	=78-	=78-	=78-	=78-	=78-	=78-
0.r	.	.	4E/	-ter-	1g	-ter-	1ee	-ter-
.	.	.	4D/	.	.	.	.	.
.	.	.	4E/	.	.	.	.	.
!	!	!	!LO:TX:b:t=P:problem:# below	!	!	!	!	!
.	.	.	4F#X/	.	.	.	.	.
!	!	!	!LO:SIC:v:t=custos A	!	!LO:TX:t=P:problem:kreska pseudotaktowa	!	!	!
!	!	!	!LO:TX:t=P:problem:kreska pseudotaktowa	!	!	!	!	!
.	.	.	2G/	.	2g\	-na	1ee\	-na
!	!	!	!LO:LB:g=original	!	!	!	!	!
=79-	=79-	=79-	=79-	=79-	=79-	=79-	=79-	=79-
!	!	!	!	!	!LO:SIC:v:l:s=Sae-	!	!	!
.	.	.	2A/	-na	1f#X	Se-	.	.
!	!	!	!	!	!	!	!LO:SIC:v:l:s=Sae-	!
.	.	.	2.B\	glo-	.	.	2ee\	Se-
!	!	!	!	!	!	!	!LO:TX:t=P:problem:kreska pseudotaktowa	!
.	.	.	.	.	2f#X\	-cu-	2dd#X\	-cu-
!	!	!	!LO:TX:t=P:problem:kreska pseudotaktowa	!	!	!	!	!
.	.	.	4B\	-ri-	.	.	.	.
=80-	=80-	=80-	=80-	=80-	=80-	=80-	=80-	=80-
!LO:TX:t=P:problem:kreska pseudotaktowa	!	!	!LO:TX:t=P:problem:kreska pseudotaktowa	!	!LO:TX:t=P:problem:kreska pseudotaktowa	!	!LO:TX:t=P:problem:kreska pseudotaktowa	!
1.r	.	.	1.E	-a	1.g#X	-la	1.ee	-la
=81-	=81-	=81-	=81-	=81-	=81-	=81-	=81-	=81-
2F\	Cu(m)	.	2c\	Cu(m)	2a\	Cu(m)	2ccny\	Cu(m)
2E\	Pat-	.	2e\	Pat-	2gn\	Pat-	2cc\	P(at)-
!LO:TX:t=P:problem:kreska pseudotaktowa	!	!	!	!	!LO:TX:t=P:problem:kreska pseudotaktowa	!	!	!
2F\	-re	.	4c\	-re	2a\	-re	4cc\	-re
!	!	!	!LO:TX:t=P:problem:kreska pseudotaktowa	!	!	!	!LO:TX:t=P:problem:kreska pseudotaktowa	!
.	.	.	4c\	et	.	.	4cc\	et
=82-	=82-	=82-	=82-	=82-	=82-	=82-	=82-	=82-
2D/	et	.	1c	al-	2fn\	et	1ddny	al-
2D/	al-	.	.	.	2f\	al-	.	.
!LO:TX:t=P:problem:kreska pseudotaktowa	!	!	!LO:TX:t=P:problem:kreska pseudotaktowa	!	!LO:TX:t=P:problem:kreska pseudotaktowa	!	!LO:TX:t=P:problem:kreska pseudotaktowa	!
2G\	-mo	.	2B\	-mo	2g\	-mo	2dd\	-mo
!	!	!	!	!	!LO:LB:g=original	!	!	!
=83-	=83-	=83-	=83-	=83-	=83-	=83-	=83-	=83-
2.C/	Spi-	.	2.c\	Sp(i-	2.g\	Spi-	2.ee\	Sp(i-
4C/	-ri-	.	4c\	-ri-	4g\	-ri-	4ee\	-ri-
!LO:TX:t=P:problem:kreska pseudotaktowa	!	!	!LO:TX:t=P:problem:kreska pseudotaktowa	!	!LO:TX:t=P:problem:kreska pseudotaktowa	!	!LO:TX:t=P:problem:kreska pseudotaktowa	!
2C/	-tu	.	2c\	-t)u	2g\	-tu	2ee\	-t)u
=84-	=84-	=84-	=84-	=84-	=84-	=84-	=84-	=84-
2C/	In	.	2G/	in	2g\	In	2e/	in
!	!	!	!	!	!	!	!LO:TX:b:t=P:problem:# below	!
2C/	ſem-	.	2A/	Sem-	2f#X\	Sem-	2f#X/	Sem-
!	!	!	!	!	!	!	!LO:TX:b:t=P:problem:# below	!
!LO:TX:t=P:problem:kreska pseudotaktowa	!	!	!LO:TX:t=P:problem:kreska pseudotaktowa	!	!LO:TX:t=P:problem:kreska pseudotaktowa	!	!LO:TX:t=P:problem:kreska pseudotaktowa	!
2BB/	.	.	2B\	-pi-	2b\	-pi-	2g#X/	-pi-
=85-	=85-	=85-	=85-	=85-	=85-	=85-	=85-	=85-
4AA/	-pi-	.	1c	-ter-	1e	-ter-	1a	-ter-
4GG/	.	.	.	.	.	.	.	.
4AA/	-ter-	.	.	.	.	.	.	.
4BB/	.	.	.	.	.	.	.	.
!LO:TX:t=P:problem:kreska pseudotaktowa	!	!	!LO:TX:t=P:problem:kreska pseudotaktowa	!	!LO:TX:t=P:problem:kreska pseudotaktowa	!	!	!
2C/	.	.	2c\	-na	2e\	-na	1a\	-na
=86-	=86-	=86-	=86-	=86-	=86-	=86-	=86-	=86-
!	!	!	!LO:SIC:v:l:s=Sae-	!	!LO:SIC:v:l:s=ſae-	!	!	!
2D/	-[na	.	1B	Se-	2fn\	ſe-	.	.
!	!	!	!	!	!	!	!LO:SIC:v:l:s=Sae-	!
2.E\	sae-	.	.	.	2.e\	.	2a\	Se-
.	.	.	2B\	-cu-	.	.	2g#X/	-cu-
!LO:TX:t=P:problem:kreska pseudotaktowa	!	!	!	!	!LO:TX:t=P:problem:kreska pseudotaktowa	!	!	!
4E\	-cula]	.	.	.	4e\	-cu-	.	.
=87-	=87-	=87-	=87-	=87-	=87-	=87-	=87-	=87-
!LO:TX:t=P:problem:fragment nieczytelny [defekt źródła]	!	!	!	!	!	!	!	!
1.ryy	.	.	1.c#X	-la	1.e	-la	1.a	-la
!LO:LB:g=original	!	!	!	!	!	!	!	!
=88||	=88||	=88||	=88||	=88||	=88||	=88||	=88||	=88||
1D	A-	.	1d	A-	1f	A-	1a	A-
2C#X/	-men	.	2A/	-men	2e\	-men	2a\	-men
=89-	=89-	=89-	=89-	=89-	=89-	=89-	=89-	=89-
*	*	*	*	*ij	*	*ij	*	*ij
1.D	A-	.	1.d	A-	1.f	A-	1.a	A-
=90-	=90-	=90-	=90-	=90-	=90-	=90-	=90-	=90-
0AAl;;	-men	.	0c#Xl;;	-men	0el;;	-men	0al;;	-men
*	*	*	*	*Xij	*	*Xij	*	*Xij
!LO:PB:g=original	!	!	!LO:PB:g=original	!	!LO:LB:g=original	!	!LO:LB:g=original	!
=91||	=91||	=91||	=91||	=91||	=91||	=91||	=91||	=91||
*M3/4	*	*	*M3/4	*	*M3/4	*	*M3/4	*
!LO:TX:b:t=Jesu Redemptor omnium	!	!	!LO:TX:t=P:problem:kreska pseudotaktowa	!	!	!	!	!
!LO:TX:t=P:problem:drugie opracowanie hymnu "Jesu Redemptor omnium"?	!	!	!LO:TX:t=P:problem:drugie opracowanie hymnu "Jesu Redemptor omnium"?	!	!LO:TX:t=P:problem:drugie opracowanie hymnu "Jesu Redemptor omnium"?	!	!LO:TX:t=P:problem:drugie opracowanie hymnu "Jesu Redemptor omnium"?	!
2.A\	.	.	2.c\	.	2.e\	.	2.cc\	.
=92-	=92-	=92-	=92-	=92-	=92-	=92-	=92-	=92-
2A\	.	.	2A\	.	2e\	.	2cc\	.
!	!	!	!	!	!LO:TX:t=P:problem:kreska pseudotaktowa	!	!LO:TX:t=P:problem:kreska pseudotaktowa	!
4A\	.	5	4A\	.	4e\	.	4cc\	.
=93-	=93-	=93-	=93-	=93-	=93-	=93-	=93-	=93-
2G\	.	.	2B\	.	2g\	.	2dd\	.
!	!	!	!	!	!	!	!LO:TX:t=P:problem:kreska pseudotaktowa	!
4G\	.	.	4B\	.	4g\	.	4dd\	.
=94-	=94-	=94-	=94-	=94-	=94-	=94-	=94-	=94-
4c\	.	.	4c\	.	4e\	.	4ee\	.
4G\	.	5	4B\	.	4g\	.	4dd\	.
!	!	!	!	!	!LO:TX:t=P:problem:kreska pseudotaktowa	!	!	!
4A\	.	.	4A\	.	4c\	.	4cc\	.
=95-	=95-	=95-	=95-	=95-	=95-	=95-	=95-	=95-
!	!	!	!LO:TX:t=P:problem:kreska pseudotaktowa	!	!	!	!	!
2.E\	.	#	2.G#X/	.	2.e\	.	2.b\	.
=96-	=96-	=96-	=96-	=96-	=96-	=96-	=96-	=96-
*M2/1	*	*	*M2/1	*	*M2/1	*	*M2/1	*
*met(C|)	*	*	*met(C|)	*	*met(C|)	*	*met(C|)	*
0r	.	.	1Gn	.	0r	.	00r	.
*	*	*	*lig	*	*	*	*	*
.	.	.	1A	.	.	.	.	.
=97-	=97-	=97-	=97-	=97-	=97-	=97-	=97-	=97-
!	!	!	!	!	!LO:TX:t=P:problem:kreska pseudotaktowa	!	!	!
1r	.	.	1c	.	1c	.	.	.
*	*	*	*Xlig	*	*	*	*	*
!	!	!	!LO:TX:t=P:problem:kreska pseudotaktowa	!	!	!	!	!
1C	.	.	1c	.	2.e\	.	.	.
.	.	.	.	.	4f\	.	.	.
=98-	=98-	=98-	=98-	=98-	=98-	=98-	=98-	=98-
*	*	*	*lig	*	*	*	*	*
2.E\	.	6	1c	.	2g\	.	1g	.
!	!	!	!	!	!LO:TX:t=P:problem:kreska pseudotaktowa	!	!	!
.	.	.	.	.	2g\	.	.	.
!LO:TX:t=P:problem:kreska pseudotaktowa	!	!	!	!	!	!	!	!
4F\	.	.	.	.	.	.	.	.
2G\	.	.	1B	.	4d\	.	2.b\	.
.	.	.	.	.	4c\	.	.	.
2G\	.	.	.	.	4d\	.	.	.
!	!	!	!	!	!	!	!LO:TX:t=P:problem:kreska pseudotaktowa	!
.	.	.	.	.	4e\	.	4cc\	.
*	*	*	*Xlig	*	*	*	*	*
=99-	=99-	=99-	=99-	=99-	=99-	=99-	=99-	=99-
*	*	*	*lig	*	*	*	*	*
4D\	.	.	1A	.	4f\	.	2dd\	.
4E\	.	.	.	.	4g\	.	.	.
4F\	.	.	.	.	4a\	.	2dd\	.
!LO:TX:t=P:problem:kreska pseudotaktowa	!	!	!	!	!LO:TX:t=P:problem:kreska pseudotaktowa	!	!	!
4D\	.	.	.	.	4f\	.	.	.
4G\	.	.	1G	.	2.g\	.	4b\	.
4F\	.	.	.	.	.	.	4a\	.
4G\	.	.	.	.	.	.	4b\	.
!	!	!	!	!	!	!	!LO:TX:t=P:problem:kreska pseudotaktowa	!
4E\	.	.	.	.	4f\	.	4g\	.
*	*	*	*Xlig	*	*	*	*	*
=100-	=100-	=100-	=100-	=100-	=100-	=100-	=100-	=100-
*	*	*	*lig	*	*	*	*	*
2A\	.	.	1A	.	4e\	.	4cc\	.
.	.	.	.	.	4d\	.	4dd\	.
!	!	!	!	!	!LO:TX:t=P:problem:kreska pseudotaktowa:między nutą a kropką	!	!	!
2.AA/	.	.	.	.	2.c\	.	4ee\	.
.	.	.	.	.	.	.	4dd\	.
*	*	*	*col	*	*	*	*	*
.	.	.	2.c\	.	.	.	4cc\	.
4BB/	.	.	.	.	4d\	.	4b\	.
!	!	!	!	!	!	!	!LO:TX:t=P:problem:kreska pseudotaktowa	!
4C/	.	.	.	.	4e\	.	2a\	.
*	*	*	*Xlig	*	*	*	*	*
!LO:TX:t=P:problem:kreska pseudotaktowa	!	!	!	!	!	!	!	!
4D/	.	.	4c\	.	4f\	.	.	.
*	*	*	*Xcol	*	*	*	*	*
=101-	=101-	=101-	=101-	=101-	=101-	=101-	=101-	=101-
!	!	!	!LO:TX:t=P:problem:kreska pseudotaktowa	!	!	!	!	!
4E\	.	6	1c	.	4g\	.	2g/	.
4D\	.	.	.	.	4f\	.	.	.
4E\	.	.	.	.	2e\	.	1cc	.
4F\	.	.	.	.	.	.	.	.
!LO:LB:g=original	!	!	!	!	!LO:LB:g=original	!	!	!
2.G\	.	4	1G	.	2.d\	.	.	.
.	.	.	.	.	.	.	2b\	.
4GG/	.	3	.	.	4d\	.	.	.
=102-	=102-	=102-	=102-	=102-	=102-	=102-	=102-	=102-
*	*	*	*lig	*	*	*	*	*
!	!	!	!	!	!	!	!LO:TX:t=P:problem:kreska pseudotaktowa	!
2C/	.	.	1c	.	1e	.	1cc	.
!LO:TX:t=P:problem:kreska pseudotaktowa	!	!	!	!	!	!	!	!
2C/	.	.	.	.	.	.	.	.
*lig	*	*	*	*	*	*	*	*
!	!	!	!LO:SIC:v:t=custos B	!	!	!	!	!
1F	.	.	1d	.	0r	.	1r	.
*	*	*	*Xlig	*	*	*	*	*
!	!	!	!LO:LB:g=original	!	!	!	!LO:LB:g=original	!
=103-	=103-	=103-	=103-	=103-	=103-	=103-	=103-	=103-
1G	.	.	1B	.	.	.	1g	.
*Xlig	*	*	*lig	*	*	*	*	*
2E\	.	6	1c	.	1c	.	2cc\	.
!	!	!	!	!	!	!	!LO:TX:t=P:problem:kreska pseudotaktowa	!
1A\	.	3	.	.	.	.	2cc\	.
.	.	2	.	.	.	.	.	.
=104-	=104-	=104-	=104-	=104-	=104-	=104-	=104-	=104-
.	.	.	1B	.	2f\	.	2dd\	.
!	!	!	!	!	!LO:TX:t=P:problem:kreska pseudotaktowa	!	!	!
2G\	.	.	.	.	2g\	.	2b\	.
*lig	*	*	*Xlig	*	*	*	*	*
*	*	*	*lig	*	*	*	*	*
1F	.	.	1A	.	4a\	.	4cc\	.
.	.	.	.	.	4g\	.	4a\	.
.	.	.	.	.	4f\	.	1dd\	.
.	.	.	.	.	4d\	.	.	.
=105-	=105-	=105-	=105-	=105-	=105-	=105-	=105-	=105-
!	!	!	!LO:TX:t=P:problem:kreska pseudotaktowa	!	!	!	!	!
1E	.	6	1G	.	4g\	.	.	.
.	.	.	.	.	4f\	.	.	.
.	.	.	.	.	4e\	.	1cc	.
!	!	!	!	!	!LO:TX:t=P:problem:kreska pseudotaktowa	!	!	!
.	.	.	.	.	4c\	.	.	.
*Xlig	*	*	*Xlig	*	*	*	*	*
2.D/	.	7	1A	.	1f	.	.	.
.	.	6	.	.	.	.	.	.
!	!	!	!	!	!	!	!LO:TX:t=P:problem:kreska pseudotaktowa	!
.	.	.	.	.	.	.	2b\	.
4D/	.	.	.	.	.	.	.	.
=106-	=106-	=106-	=106-	=106-	=106-	=106-	=106-	=106-
2C/	.	.	1E	.	2e\	.	4cc\	.
.	.	.	.	.	.	.	4g\	.
2.AA/	.	.	.	.	2.e\	.	4a\	.
.	.	.	.	.	.	.	4b\	.
*	*	*	*lig	*	*	*	*	*
.	.	.	1E	.	.	.	4cc\	.
4BB/	.	.	.	.	4d\	.	4dd\	.
4C/	.	.	.	.	4c/	.	4ee\	.
!LO:TX:t=P:problem:kreska pseudotaktowa	!	!	!	!	!LO:TX:t=P:problem:kreska pseudotaktowa	!	!	!
4D/	.	.	.	.	4A/	.	8dd\L	.
!	!	!	!	!	!	!	!LO:TX:t=P:problem:kreska pseudotaktowa (?)	!
.	.	.	.	.	.	.	8cc\J	.
=107-	=107-	=107-	=107-	=107-	=107-	=107-	=107-	=107-
!	!	!	!LO:TX:t=P:problem:# przed ligaturą	!	!	!	!	!
2.E\	.	#4r	1G#X	.	2.e\	.	2.b\	.
4E\	.	.	.	.	4e\	.	4b\	.
*	*	*	*Xlig	*	*	*	*	*
!LO:TX:t=P:problem:kreska pseudotaktowa	!	!	!LO:TX:t=P:problem:kreska pseudotaktowa	!	!	!	!LO:TX:t=P:problem:kreska pseudotaktowa	!
1AA	.	.	1A	.	1e	.	1cc	.
=108-	=108-	=108-	=108-	=108-	=108-	=108-	=108-	=108-
0rD	.	.	1D	.	2d\	.	0r	.
!	!	!	!	!	!LO:TX:t=P:problem:kreska pseudotaktowa:między nutą a kropką	!	!	!
.	.	.	.	.	2.f\	.	.	.
!	!	!	!LO:TX:t=P:problem:kreska pseudotaktowa	!	!	!	!	!
.	.	.	1F	.	.	.	.	.
.	.	.	.	.	4g\	.	.	.
.	.	.	.	.	2.a\	.	.	.
=109-	=109-	=109-	=109-	=109-	=109-	=109-	=109-	=109-
!LO:TX:t=P:problem:kreska pseudotaktowa	!	!	!	!	!	!	!	!
1rD	.	.	1F	.	.	.	(2.a\	.
.	.	.	.	.	4g\	.	.	.
!	!	!	!	!	!LO:TX:t=P:problem:kreska pseudotaktowa	!	!	!
.	.	.	.	.	2f\	.	.	.
!	!	!	!	!	!	!	!LO:TX:t=P:problem:kreska pseudotaktowa	!
.	.	.	.	.	.	.	4b\)	.
*	*	*	*lig	*	*	*	*	*
1AA	.	.	1A	.	2e\	.	2cc\	.
!	!	!	!	!	!	!	!LO:TX:t=P:problem:kreska pseudotaktowa	!
.	.	.	.	.	2a\	.	2cc\	.
=110-	=110-	=110-	=110-	=110-	=110-	=110-	=110-	=110-
!	!	!	!LO:TX:t=P:problem:♭ przed ligaturą	!	!	!	!	!
2D\	.	6	1B-X	.	2f\	.	1dd	.
2E\	.	5	.	.	2g\	.	.	.
!	!	!	!	!	!LO:TX:t=P:problem:kreska pseudotaktowa	!	!	!
*	*	*	*Xlig	*	*	*	*	*
!LO:TX:t=P:problem:kreska pseudotaktowa	!	!	!	!	!	!	!	!
*	*	*	*lig	*	*	*	*	*
1F	.	.	1A	.	2a\	.	2cc\	.
!	!	!	!	!	!	!	!LO:TX:t=P:problem:kreska pseudotaktowa	!
.	.	.	.	.	2d\	.	2dd\	.
=111-	=111-	=111-	=111-	=111-	=111-	=111-	=111-	=111-
!	!	!	!LO:TX:t=P:problem:kreska pseudotaktowa	!	!	!	!	!
2E\	.	.	1Gny	.	2.e\	.	2b\	.
2.C/	.	.	.	.	.	.	2.een\	.
.	.	.	.	.	4f\	.	.	.
*	*	*	*Xlig	*	*	*	*	*
*	*	*	*lig	*	*	*	*	*
!	!	!	!	!	!LO:LB:g=original	!	!	!
.	.	.	1E	.	4g\	.	.	.
4D/	.	.	.	.	4f\	.	4dd\	.
4E\	.	.	.	.	4g\	.	4cc\	.
!LO:TX:t=P:problem:kreska pseudotaktowa	!	!	!	!	!LO:TX:t=P:problem:kreska pseudotaktowa	!	!LO:TX:t=P:problem:kreska pseudotaktowa	!
4C/	.	.	.	.	4e\	.	4b\	.
=112-	=112-	=112-	=112-	=112-	=112-	=112-	=112-	=112-
!	!	!	!	!	!	!	!LO:SIC:v:t=custos a	!
4D\	.	.	1F	.	4a\	.	2a\	.
4E\	.	.	.	.	4g\	.	.	.
!	!	!	!	!	!	!	!LO:TX:t=P:problem:kreska pseudotaktowa	!
!	!	!	!	!	!	!	!LO:LB:g=original	!
1F	.	.	.	.	4f\	.	2a\	.
.	.	.	.	.	4e\	.	.	.
*	*	*	*Xlig	*	*	*	*	*
.	.	.	1G	.	2d\	.	2b\	.
!LO:TX:t=P:problem:kreska pseudotaktowa	!	!	!	!	!LO:TX:t=P:problem:kreska pseudotaktowa	!	!LO:TX:t=P:problem:kreska pseudotaktowa	!
2E\	.	.	.	.	2e\	.	2cc#X\	.
!LO:LB:g=original	!	!	!	!	!	!	!	!
=113-	=113-	=113-	=113-	=113-	=113-	=113-	=113-	=113-
1.D	.	.	1.F	.	1.f	.	1.dd	.
2D/	.	.	2F/	.	2d\	.	2dd\	.
=114-	=114-	=114-	=114-	=114-	=114-	=114-	=114-	=114-
!	!	!	!	!	!	!	!LO:TX:a:t=P:problem:# above	!
!	!	!	!	!	!	!	!LO:TX:t=P:problem:kreska taktowa pojedyncza	!
0AAl;;	.	#	0El;;	.	0el;;	.	0cc#lX;<	.
!	!	!	!LO:LB:g=original	!	!	!	!	!
=115||	=115||	=115||	=115||	=115||	=115||	=115||	=115||	=115||
*M2/1	*	*	*M2/1	*	*M2/1	*	*M2/1	*
*met(C|)	*	*	*met(C|)	*	*met(C|)	*	*met(C|)	*
00rBB	.	.	1r	.	1d	.	0r	.
.	.	.	1D	.	2f\	.	.	.
!	!	!	!	!	!LO:TX:t=P:problem:kreska pseudotaktowa:między nutą a kropką	!	!	!
.	.	.	.	.	2.f\	.	.	.
=116-	=116-	=116-	=116-	=116-	=116-	=116-	=116-	=116-
!	!	!	!	!	!	!	!LO:TX:t=P:problem:kreska pseudotaktowa	!
.	.	.	1F	.	.	.	1r	.
.	.	.	.	.	4g\	.	.	.
.	.	.	.	.	2.a\	.	.	.
!	!	!	!LO:TX:t=P:problem:kreska pseudotaktowa	!	!	!	!	!
.	.	.	1F	.	.	.	1a	.
.	.	.	.	.	4g\	.	.	.
.	.	.	.	.	4f\	.	.	.
!	!	!	!	!	!LO:TX:t=P:problem:kreska pseudotaktowa	!	!	!
.	.	.	.	.	4e\	.	.	.
=117-	=117-	=117-	=117-	=117-	=117-	=117-	=117-	=117-
*	*	*	*lig	*	*	*	*	*
!LO:TX:t=P:problem:kreska pseudotaktowa	!	!	!	!	!	!	!	!
1rBB	.	.	1G	.	2d\	.	2b\	.
.	.	.	.	.	4g\	.	2b\	.
!	!	!	!	!	!LO:TX:t=P:problem:kreska pseudotaktowa	!	!	!
.	.	.	.	.	4f\	.	.	.
*	*	*	*	*	*	*	*lig	*
1AA	.	.	1A	.	1e	.	1cc#X	.
*	*	*	*Xlig	*	*	*	*	*
=118-	=118-	=118-	=118-	=118-	=118-	=118-	=118-	=118-
!	!	!	!LO:TX:t=P:problem:cezura na 1. linii	!	!	!	!LO:TX:t=P:problem:kreska pseudotaktowa	!
2BB/	.	.	1D,<	.	2d\	.	1dd	.
2BB/	.	.	.	.	2.g\	.	.	.
!LO:TX:t=P:problem:kreska pseudotaktowa	!	!	!	!	!	!	!	!
*lig	*	*	*lig	*	*	*	*Xlig	*
1C#X	.	.	1E	.	.	.	2cc#X\	.
.	.	.	.	.	4f\	.	.	.
!	!	!	!	!	!LO:TX:t=P:problem:kreska pseudotaktowa	!	!	!
.	.	.	.	.	2e\	.	2.a\	.
=119-	=119-	=119-	=119-	=119-	=119-	=119-	=119-	=119-
1D	.	.	1F	.	4d\	.	.	.
.	.	.	.	.	4e\	.	4g/	.
.	.	.	.	.	1f	.	4f/	.
!	!	!	!	!	!	!	!LO:TX:t=P:problem:kreska pseudotaktowa	!
.	.	.	.	.	.	.	4e/	.
*Xlig	*	*	*	*	*	*	*	*
2GG/	.	.	1G	.	.	.	2d/	.
!LO:TX:t=P:problem:kreska pseudotaktowa	!	!	!	!	!	!	!	!
2Cny/	.	.	.	.	2g\	.	2e/	.
*	*	*	*Xlig	*	*	*	*	*
=120-	=120-	=120-	=120-	=120-	=120-	=120-	=120-	=120-
*	*	*	*lig	*	*	*	*	*
2.FF/	.	.	1F	.	4a\	.	4f/	.
!	!	!	!	!	!LO:SIC:v:t=custos d	!	!	!
.	.	.	.	.	4A/	.	4g/	.
!	!	!	!	!	!LO:LB:g=original	!	!	!
.	.	.	.	.	1d	.	2.a\	.
4GG/	.	.	.	.	.	.	.	.
2.AA/	.	.	1E	.	.	.	.	.
.	.	.	.	.	.	.	4e/	.
.	.	.	.	.	2c#X/	.	4a\	.
!LO:TX:t=P:problem:kreska pseudotaktowa	!	!	!	!	!	!	!LO:TX:t=P:problem:kreska pseudotaktowa	!
4AA/	.	.	.	.	.	.	4g\	.
*	*	*	*Xlig	*	*	*	*	*
=121-	=121-	=121-	=121-	=121-	=121-	=121-	=121-	=121-
!LO:TX:t=P:problem:kreska pseudotaktowa	!	!	!	!	!LO:TX:t=P:problem:kreska pseudotaktowa	!	!	!
1D	.	.	1D	.	1d	.	4f/	.
.	.	.	.	.	.	.	4g/	.
.	.	.	.	.	.	.	4a\	.
.	.	.	.	.	.	.	4b\	.
!	!	!	!LO:TX:t=P:problem:kreska pseudotaktowa	!	!	!	!	!
2rBB	.	.	1E	.	0re	.	2.ccny\	.
!LO:TX:t=P:problem:kreska pseudotaktowa	!	!	!	!	!	!	!	!
2C/	.	.	.	.	.	.	.	.
.	.	.	.	.	.	.	4cc\	.
!	!	!	!	!	!	!	!LO:LB:g=original	!
=122-	=122-	=122-	=122-	=122-	=122-	=122-	=122-	=122-
2E\	.	.	1G	.	.	.	1cc	.
2E\	.	.	.	.	.	.	.	.
*	*	*	*lig	*	*	*	*	*
!	!	!	!	!	!	!	!LO:TX:a:t=2	!
!	!	!	!	!	!	!	!LO:TX:t=P:problem:kreska pseudotaktowa	!
2F\	.	.	1A	.	1cny	.	0r	.
!LO:TX:t=P:problem:kreska pseudotaktowa	!	!	!	!	!	!	!	!
2F\	.	.	.	.	.	.	.	.
=123-	=123-	=123-	=123-	=123-	=123-	=123-	=123-	=123-
2C/	.	.	1c	.	2e\	.	.	.
!	!	!	!	!	!LO:TX:t=P:problem:kreska pseudotaktowa	!	!	!
2.c\	.	.	.	.	2e\	.	.	.
*	*	*	*Xlig	*	*	*	*	*
!	!	!	!LO:TX:t=P:problem:kreska pseudotaktowa	!	!	!	!	!
.	.	.	1c	.	2g\	.	1g	.
4B\	.	.	.	.	.	.	.	.
4A\	.	.	.	.	2g\	.	.	.
!LO:TX:t=P:problem:kreska pseudotaktowa	!	!	!	!	!	!	!	!
4G\	.	.	.	.	.	.	.	.
=124-	=124-	=124-	=124-	=124-	=124-	=124-	=124-	=124-
*	*	*	*lig	*	*	*	*lig	*
2.F\	.	.	1c	.	2c/	.	1a	.
.	.	.	.	.	2.f\	.	.	.
4E\	.	.	.	.	.	.	.	.
!	!	!	!	!	!	!	!LO:TX:t=P:problem:kreska pseudotaktowa	!
2D/	.	.	1B	.	.	.	1b	.
.	.	.	.	.	4e\	.	.	.
!	!	!	!	!	!LO:TX:t=P:problem:kreska pseudotaktowa	!	!	!
1G\	.	3	.	.	2d/	.	.	.
.	.	2	.	.	.	.	.	.
*	*	*	*Xlig	*	*	*	*Xlig	*
=125-	=125-	=125-	=125-	=125-	=125-	=125-	=125-	=125-
*	*	*	*lig	*	*	*	*	*
.	.	.	1A	.	2c/	.	2.cc\	.
!LO:TX:a:t=P:problem:# above	!	!	!	!	!	!	!	!
2F#X\	.	.	.	.	2d\	.	.	.
!	!	!	!	!	!	!	!LO:TX:t=P:problem:kreska pseudotaktowa	!
.	.	.	.	.	.	.	4cc\	.
!LO:LB:g=original	!	!	!LO:TX:t=P:problem:kreska pseudotaktowa	!	!	!	!	!
2G\	.	.	1G	.	2G/	.	2b\	.
!LO:TX:t=P:problem:kreska pseudotaktowa	!	!	!	!	!LO:TX:t=P:problem:kreska pseudotaktowa	!	!	!
2G\	.	.	.	.	2g\	.	2.dd\	.
*	*	*	*Xlig	*	*	*	*	*
=126-	=126-	=126-	=126-	=126-	=126-	=126-	=126-	=126-
*	*	*	*lig	*	*	*	*	*
4D\	.	.	1A	.	1f	.	.	.
4E\	.	.	.	.	.	.	4dd\	.
!	!	!	!	!	!	!	!LO:TX:t=P:problem:kreska pseudotaktowa	!
4Fny\	.	.	.	.	.	.	2dd\	.
!LO:TX:t=P:problem:kreska pseudotaktowa	!	!	!	!	!	!	!	!
4G\	.	.	.	.	.	.	.	.
!	!	!	!	!	!LO:TX:t=P:problem:interpretacja ♮ niepewna	!	!	!
4A\	.	.	1c	.	2en\	.	4cc\	.
4G\	.	.	.	.	.	.	4b\	.
4A\	.	.	.	.	1e\	.	4cc\	.
4B\	.	.	.	.	.	.	4dd\	.
*	*	*	*Xlig	*	*	*	*	*
=127-	=127-	=127-	=127-	=127-	=127-	=127-	=127-	=127-
4c\	.	.	1c	.	.	.	4ee\	.
4B\	.	.	.	.	.	.	4dd\	.
!	!	!	!	!	!LO:TX:t=P:problem:kreska pseudotaktowa	!	!	!
4A\	.	.	.	.	2e\	.	4cc\	.
!LO:TX:t=P:problem:kreska pseudotaktowa	!	!	!	!	!	!	!LO:TX:t=P:problem:kreska pseudotaktowa	!
4G\	.	.	.	.	.	.	4b\	.
!	!	!	!LO:TX:t=P:problem:kreska pseudotaktowa	!	!	!	!	!
4F\	.	.	1c	.	4a\	.	4a\	.
4E\	.	.	.	.	4g\	.	4b\	.
4F\	.	.	.	.	4f\	.	1cc\	.
4C\	.	.	.	.	4e\	.	.	.
!	!	!	!LO:LB:g=original	!	!	!	!	!
=128-	=128-	=128-	=128-	=128-	=128-	=128-	=128-	=128-
2.G\	.	.	1G	.	2.d\	.	.	.
!	!	!	!	!	!	!	!LO:TX:t=P:problem:kreska pseudotaktowa	!
.	.	.	.	.	.	.	2b\	.
4GG/	.	.	.	.	4d\	.	.	.
*	*	*	*lig	*	*	*	*	*
!LO:TX:t=P:problem:kreska pseudotaktowa	!	!	!	!	!LO:TX:t=P:problem:kreska pseudotaktowa	!	!	!
1C	.	.	1G	.	1e	.	1cc	.
=129-	=129-	=129-	=129-	=129-	=129-	=129-	=129-	=129-
!	!	!	!	!	!	!	!LO:TX:t=P:problem:kreska pseudotaktowa	!
2rBB	.	.	1c	.	0r	.	0r	.
2C/	.	.	.	.	.	.	.	.
!LO:TX:t=P:problem:kreska pseudotaktowa	!	!	!	!	!	!	!	!
*lig	*	*	*Xlig	*	*	*	*	*
!	!	!	!LO:TX:t=P:problem:kreska pseudotaktowa	!	!	!	!	!
1F	.	6	1d	.	.	.	.	.
=130-	=130-	=130-	=130-	=130-	=130-	=130-	=130-	=130-
!	!	!	!LO:TX:t=P:problem:kreska pseudotaktowa	!	!	!	!	!
1G	.	.	1B	.	1r	.	1g	.
*Xlig	*	*	*lig	*	*	*	*	*
2E\	.	6	1c	.	1c	.	2cc\	.
!	!	!	!	!	!	!	!LO:TX:t=P:problem:kreska pseudotaktowa	!
1A\	.	3	.	.	.	.	2cc\	.
.	.	2	.	.	.	.	.	.
=131-	=131-	=131-	=131-	=131-	=131-	=131-	=131-	=131-
.	.	.	1B	.	2f\	.	2dd\	.
!LO:TX:t=P:problem:kreska pseudotaktowa	!	!	!	!	!LO:TX:t=P:problem:kreska pseudotaktowa	!	!	!
2G\	.	.	.	.	2g\	.	2b\	.
*	*	*	*Xlig	*	*	*	*	*
*	*	*	*lig	*	*	*	*	*
2A\	.	.	1A	.	2e\	.	2cc\	.
!	!	!	!	!	!	!	!LO:TX:t=P:problem:kreska pseudotaktowa	!
1F\	.	.	.	.	2f\	.	2a\	.
=132-	=132-	=132-	=132-	=132-	=132-	=132-	=132-	=132-
.	.	.	1G	.	2d\	.	2b\	.
!LO:TX:t=P:problem:kreska pseudotaktowa	!	!	!	!	!	!	!LO:TX:a:t=P:problem:# above	!
2E\	.	.	.	.	2e\	.	2cc#X\	.
*	*	*	*Xlig	*	*	*	*	*
!	!	!	!LO:TX:t=P:problem:kreska pseudotaktowa	!	!LO:LB:g=original	!	!LO:LB:g=original	!
2D/	.	.	1A	.	4A/	.	2dd\	.
.	.	.	.	.	4B/	.	.	.
!	!	!	!	!	!	!	!LO:TX:t=P:problem:kreska pseudotaktowa:między nutą a kropką	!
2.AA/	.	.	.	.	4c/	.	2.ccny\	.
.	.	.	.	.	4d\	.	.	.
=133-	=133-	=133-	=133-	=133-	=133-	=133-	=133-	=133-
.	.	.	1E	.	4e\	.	.	.
4BB/	.	.	.	.	4d\	.	4b\	.
!	!	!	!	!	!LO:TX:t=P:problem:kreska pseudotaktowa	!	!LO:TX:t=P:problem:kreska pseudotaktowa	!
4C/	.	.	.	.	2c/	.	2a\	.
!LO:TX:t=P:problem:kreska pseudotaktowa	!	!	!	!	!	!	!	!
4D/	.	.	.	.	.	.	.	.
*	*	*	*lig	*	*	*	*	*
!	!	!	!	!	!	!	!LO:TX:a:t=P:problem:# above	!
4E\	.	.	1E	.	2B/	.	2g#X\	.
4D/	.	.	.	.	.	.	.	.
!	!	!	!	!	!	!	!LO:TX:t=P:problem:kreska pseudotaktowa	!
4C/	.	.	.	.	4c\	.	2cc\	.
4AA/	.	.	.	.	4d\	.	.	.
=134-	=134-	=134-	=134-	=134-	=134-	=134-	=134-	=134-
!	!	!	!LO:TX:a:t=P:problem:# above	!	!	!	!	!
2.E\	.	.	1G#X	.	2.e\	.	2.b\	.
!LO:TX:t=P:problem:kreska pseudotaktowa	!	!	!	!	!	!	!	!
4E\	.	.	.	.	4e\	.	4b\	.
*	*	*	*Xlig	*	*	*	*	*
!LO:TX:t=P:problem:kreska pseudotaktowa	!	!	!LO:TX:t=P:problem:kreska pseudotaktowa	!	!LO:TX:t=P:problem:kreska pseudotaktowa	!	!LO:TX:t=P:problem:kreska pseudotaktowa	!
!LO:LB:g=original	!	!	!	!	!	!	!	!
1AA	.	.	1A	.	1e	.	1cc	.
=135-	=135-	=135-	=135-	=135-	=135-	=135-	=135-	=135-
!LO:TX:a:t=3	!	!	!	!	!	!	!	!
0rD	.	.	1D	.	2r	.	1r	.
.	.	.	.	.	2d\	.	.	.
.	.	.	1F	.	2a\	.	1a	.
!	!	!	!	!	!LO:TX:t=P:problem:kreska pseudotaktowa	!	!	!
.	.	.	.	.	2a\	.	.	.
=136-	=136-	=136-	=136-	=136-	=136-	=136-	=136-	=136-
!LO:TX:t=P:problem:kreska pseudotaktowa	!	!	!LO:TX:t=P:problem:kreska pseudotaktowa	!	!	!	!	!
1r	.	.	1F	.	1f	.	2dd\	.
!	!	!	!	!	!	!	!LO:TX:t=P:problem:kreska pseudotaktowa	!
.	.	.	.	.	.	.	2dd\	.
2r	.	.	1A	.	2e\	.	1cc	.
!LO:TX:t=P:problem:kreska pseudotaktowa	!	!	!	!	!	!	!	!
2AA/	.	.	.	.	2.a\	.	.	.
=137-	=137-	=137-	=137-	=137-	=137-	=137-	=137-	=137-
*	*	*	*lig	*	*	*	*	*
2D/	.	.	1A	.	.	.	2a\	.
.	.	.	.	.	4g\	.	.	.
2D/	.	.	.	.	4f\	.	2.dd\	.
!	!	!	!	!	!LO:TX:t=P:problem:kreska pseudotaktowa	!	!	!
.	.	.	.	.	4e\	.	.	.
!	!	!	!LO:TX:t=P:problem:♭ przed ligaturą	!	!	!	!	!
2BB-X/	.	.	1B-X	.	2d\	.	.	.
.	.	.	.	.	.	.	4cc\	.
!LO:TX:t=P:problem:kreska pseudotaktowa	!	!	!	!	!	!	!	!
2GG/	.	.	.	.	2e\	.	4b-X\	.
!	!	!	!	!	!	!	!LO:TX:t=P:problem:kreska pseudotaktowa	!
.	.	.	.	.	.	.	4gny\	.
*	*	*	*Xlig	*	*	*	*	*
=138-	=138-	=138-	=138-	=138-	=138-	=138-	=138-	=138-
*	*	*	*lig	*	*	*	*	*
4FF/	.	.	1A	.	2f\	.	4cc\	.
4GG/	.	.	.	.	.	.	4b-X\	.
4AA/	.	.	.	.	4c\	.	4a\	.
!LO:TX:t=P:problem:kreska pseudotaktowa	!	!	!	!	!LO:TX:t=P:problem:kreska pseudotaktowa	!	!LO:TX:t=P:problem:kreska pseudotaktowa	!
4BBny/	.	.	.	.	4d\	.	4f/	.
2.C/	.	.	1Gny	.	4e\	.	2.cc\	.
.	.	.	.	.	4f\	.	.	.
.	.	.	.	.	2.g\	.	.	.
!LO:TX:t=P:problem:kreska pseudotaktowa	!	!	!	!	!	!	!	!
4D/	.	.	.	.	.	.	4cc\	.
*	*	*	*Xlig	*	*	*	*	*
=139-	=139-	=139-	=139-	=139-	=139-	=139-	=139-	=139-
*	*	*	*lig	*	*	*	*	*
4E\	.	.	1E	.	.	.	2bn\	.
4D/	.	.	.	.	4f\	.	.	.
4C/	.	.	.	.	4e\	.	1a	.
!LO:TX:t=P:problem:kreska pseudotaktowa	!	!	!	!	!LO:TX:t=P:problem:kreska pseudotaktowa	!	!	!
4BB/	.	.	.	.	4d\	.	.	.
2AA/	.	.	1F	.	2c\	.	.	.
!	!	!	!	!	!	!	!LO:TX:t=P:problem:kreska pseudotaktowa:między nutą a kropką	!
1BBnX/	.	.	.	.	1d\	.	2.dd\	.
*	*	*	*Xlig	*	*	*	*	*
=140-	=140-	=140-	=140-	=140-	=140-	=140-	=140-	=140-
!	!	!	!LO:SIC:v:t=custos F	!	!	!	!	!
.	.	.	1G	.	.	.	.	.
.	.	.	.	.	.	.	4dd\	.
!LO:TX:t=P:problem:kreska pseudotaktowa	!	!	!	!	!LO:TX:t=P:problem:kreska pseudotaktowa	!	!LO:TX:a:t=P:problem:# above	!
2C#X/	.	.	.	.	2e\	.	2cc#X\	.
!	!	!	!LO:LB:g=original	!	!	!	!	!
1.D	.	.	1.F	.	4f\	.	2a\	.
.	.	.	.	.	4g\	.	.	.
.	.	.	.	.	4a\	.	2.d/	.
.	.	.	.	.	4g\	.	.	.
=141-	=141-	=141-	=141-	=141-	=141-	=141-	=141-	=141-
.	.	.	.	.	4f\	.	.	.
.	.	.	.	.	4e\	.	4e/	.
2D/	.	.	2F/	.	4d\	.	4f/	.
.	.	.	.	.	4d\	.	4g/	.
0AAl;<	.	.	0El;;	.	0c#Xl;;	.	0al;;	.
!LO:LB:g=original	!	!	!	!	!LO:LB:g=original	!	!LO:LB:g=original	!
=142||	=142||	=142||	=142||	=142||	=142||	=142||	=142||	=142||
*M3/4	*	*	*M3/4	*	*M3/4	*	*M3/4	*
4r	.	.	4r	.	4r	.	4r	.
4rF	.	.	4r	.	4re	.	4r	.
!LO:TX:t=P:problem:kreska pseudotaktowa	!	!	!LO:TX:t=P:problem:kreska pseudotaktowa	!	!LO:TX:t=P:problem:kreska pseudotaktowa	!	!LO:TX:t=P:problem:kreska pseudotaktowa	!
4A\	.	.	4c\	.	4e\	.	4cc\	.
=143-	=143-	=143-	=143-	=143-	=143-	=143-	=143-	=143-
2A\	.	.	2A/	.	2e\	.	2cc\	.
!LO:TX:t=P:problem:kreska pseudotaktowa	!	!	!LO:TX:t=P:problem:kreska pseudotaktowa	!	!LO:TX:t=P:problem:kreska pseudotaktowa	!	!LO:TX:t=P:problem:kreska pseudotaktowa	!
4A\	.	.	4A/	.	4e\	.	4cc\	.
=144-	=144-	=144-	=144-	=144-	=144-	=144-	=144-	=144-
2G\	.	.	2B\	.	2g\	.	2dd\	.
!	!	!	!LO:TX:t=P:problem:kreska pseudotaktowa	!	!	!	!LO:TX:t=P:problem:kreska pseudotaktowa	!
4G\	.	.	4B\	.	4g\	.	4dd\	.
=145-	=145-	=145-	=145-	=145-	=145-	=145-	=145-	=145-
4c\	.	.	4c\	.	4e\	.	4ee\	.
4G\	.	.	4B\	.	4g\	.	4dd\	.
!LO:TX:t=P:problem:kreska pseudotaktowa	!	!	!LO:TX:t=P:problem:kreska pseudotaktowa	!	!LO:TX:t=P:problem:kreska pseudotaktowa	!	!LO:TX:t=P:problem:kreska pseudotaktowa	!
4A\	.	.	4A/	.	4c/	.	4cc\	.
=146-	=146-	=146-	=146-	=146-	=146-	=146-	=146-	=146-
!	!	!	!LO:TX:b:t=P:problem:# below	!	!	!	!	!
4.E\	.	.	4.G#X/	.	4.e\	.	4.b\	.
8E\	.	.	8G#/	.	8e\	.	8b\	.
!	!	!	!LO:TX:t=P:problem:kreska pseudotaktowa	!	!	!	!LO:TX:t=P:problem:kreska pseudotaktowa	!
4E\	.	.	4G#/	.	4e\	.	4b\	.
=147-	=147-	=147-	=147-	=147-	=147-	=147-	=147-	=147-
4C/	.	.	4c\	.	4g\	.	4ee\	.
8C/	.	.	8c\	.	8g\	.	8ee\	.
8C/	.	.	8c\	.	8g\	.	8ee\	.
!LO:TX:t=P:problem:kreska pseudotaktowa	!	!	!LO:TX:t=P:problem:kreska pseudotaktowa	!	!LO:TX:t=P:problem:kreska pseudotaktowa	!	!LO:TX:t=P:problem:kreska pseudotaktowa	!
4F\	.	.	4c\	.	4a\	.	4ff\	.
=148-	=148-	=148-	=148-	=148-	=148-	=148-	=148-	=148-
4C/	.	.	4c\	.	4g\	.	4ee\	.
4.G\	.	4	4c\	.	4.g\	.	4.dd\	.
!	!	!	!LO:TX:t=P:problem:kreska pseudotaktowa	!	!	!	!	!
.	.	.	4B\	.	.	.	.	.
!LO:TX:t=P:problem:kreska pseudotaktowa	!	!	!	!	!	!	!LO:TX:t=P:problem:kreska pseudotaktowa	!
8GG/	.	3	.	.	8f\	.	8dd\	.
=149-	=149-	=149-	=149-	=149-	=149-	=149-	=149-	=149-
!	!	!	!LO:TX:t=P:problem:cezura na 3. linii	!	!	!	!	!
2C/	.	.	2c,<\	.	2e\	.	2cc\	.
!LO:TX:t=P:problem:kreska pseudotaktowa	!	!	!LO:TX:t=P:problem:kreska pseudotaktowa	!	!LO:TX:t=P:problem:kreska pseudotaktowa	!	!	!
4r	.	.	4c\	.	4g\	.	4ee\	.
=150-	=150-	=150-	=150-	=150-	=150-	=150-	=150-	=150-
!LO:N:vis=0	!	!	!	!	!	!	!	!
1.r	.	.	4.c\	.	4.g\	.	4.ee\	.
.	.	.	8c\	.	8g\	.	8ee\	.
!	!	!	!	!	!	!	!LO:TX:t=P:problem:kreska pseudotaktowa	!
.	.	.	4c\	.	4g\	.	4ee\	.
=151-	=151-	=151-	=151-	=151-	=151-	=151-	=151-	=151-
.	.	.	2Gny/	.	2g\	.	2dd\	.
.	.	.	4A/	.	4e\	.	4cc\	.
!	!	!	!LO:LB:g=original	!	!	!	!	!
=152-	=152-	=152-	=152-	=152-	=152-	=152-	=152-	=152-
2.r	.	.	2E/	.	2e\	.	2b\	.
!	!	!	!LO:TX:t=P:problem:kreska pseudotaktowa	!	!LO:TX:t=P:problem:kreska pseudotaktowa	!	!LO:TX:t=P:problem:kreska pseudotaktowa	!
.	.	.	4E/	.	4e\	.	4b\	.
=153-	=153-	=153-	=153-	=153-	=153-	=153-	=153-	=153-
4r	.	.	2A/	.	2e\	.	2a\	.
4rF	.	.	.	.	.	.	.	.
!LO:TX:t=P:problem:kreska pseudotaktowa	!	!	!LO:TX:t=P:problem:kreska pseudotaktowa	!	!LO:TX:t=P:problem:kreska pseudotaktowa	!	!	!
4A\	.	.	4A/	.	4e\	.	4cc\	.
=154-	=154-	=154-	=154-	=154-	=154-	=154-	=154-	=154-
2E\	.	.	2G#X/	.	2e\	.	2b\	.
!	!	!	!LO:TX:t=P:problem:kreska pseudotaktowa	!	!	!	!LO:TX:t=P:problem:kreska pseudotaktowa	!
4A\	.	.	4A/	.	4e\	.	4cc\	.
=155-	=155-	=155-	=155-	=155-	=155-	=155-	=155-	=155-
8G\L	.	.	8B\L	.	2g\	.	2dd\	.
8F\	.	.	8A\	.	.	.	.	.
8G\	.	.	8B\	.	.	.	.	.
8A\J	.	.	8c\	.	.	.	.	.
!	!	!	!	!	!LO:SIC:v:t=custos g	!	!	!
!	!	!	!	!	!LO:TX:t=P:problem:kreska pseudotaktowa	!	!	!
8B\L	.	.	8d\	.	4g\	.	4dd\	.
!LO:TX:t=P:problem:kreska pseudotaktowa	!	!	!LO:TX:t=P:problem:kreska pseudotaktowa	!	!	!	!	!
8G\J	.	.	8B\J	.	.	.	.	.
!LO:LB:g=original	!	!	!	!	!LO:LB:g=original	!	!LO:LB:g=original	!
=156-	=156-	=156-	=156-	=156-	=156-	=156-	=156-	=156-
!LO:TX:t=P:problem:mixed beam	!	!	!	!	!LO:TX:t=P:problem:partia do końca zapisana na dodanej pięciolinii	!	!	!
8c\L	.	.	2c\	.	4.g\	.	2ee\	.
8C/	.	.	.	.	.	.	.	.
8E/	.	.	.	.	.	.	.	.
8F/J	.	.	.	.	8g\	.	.	.
!LO:TX:t=P:problem:kreska pseudotaktowa	!	!	!LO:TX:t=P:problem:kreska pseudotaktowa	!	!	!	!LO:TX:t=P:problem:kreska pseudotaktowa	!
4G\	.	.	4B\	.	8g\	.	4dd\	.
!	!	!	!	!	!LO:TX:t=P:problem:kreska pseudotaktowa	!	!	!
.	.	.	.	.	8g\	.	.	.
=157-	=157-	=157-	=157-	=157-	=157-	=157-	=157-	=157-
4A\	.	.	2A/	.	2e\	.	4cc\	.
4.E\	.	4	.	.	.	.	4.b\	.
.	.	3	4G#X/	.	4e\	.	.	.
!LO:TX:t=P:problem:kreska pseudotaktowa	!	!	!	!	!	!	!	!
8E\	.	#	.	.	.	.	8b\	.
=158-	=158-	=158-	=158-	=158-	=158-	=158-	=158-	=158-
!LO:TX:t=P:problem:kreska pseudotaktowa	!	!	!LO:TX:t=P:problem:kreska pseudotaktowa	!	!LO:TX:t=P:problem:kreska pseudotaktowa	!	!LO:TX:t=P:problem:kreska pseudotaktowa	!
2.AA/	.	.	2.A/	.	2.e\	.	2.cc#X\	.
=159-	=159-	=159-	=159-	=159-	=159-	=159-	=159-	=159-
*M3/2	*	*	*	*	*M3/2	*	*M3/2	*
1.D	.	.	1.A	.	1.f	.	1.dd	.
=160-	=160-	=160-	=160-	=160-	=160-	=160-	=160-	=160-
0AAl;;	.	#	0Al;;	.	0el;;	.	0cc#Xl;;	.
==	==	==	==	==	==	==	==	==
*-	*-	*-	*-	*-	*-	*-	*-	*-
!!!system-decoration: [g1]
!!!RDF**kern: > = above
!!!RDF**kern: < = below
!!!RDF**kern: l = terminal long
!!!AIN: 1 alto 1 empty 1 tenor 1 vox
!!!ENC: Andrzej Kubiczek
!!!END: 2021-03-28
!!!ENC: Kamil Watkowski
!!!END: 2021-03-17
